;FLAVOR:Marlin
;TIME:770
;Filament used: 0.886272m
;Layer height: 0.2
;MINX:133.472
;MINY:117.446
;MINZ:0.2
;MAXX:176.245
;MAXY:182.546
;MAXZ:10
;TARGET_MACHINE.NAME:Creality CR-10
;POSTPROCESSED
;  [CreateThumbnail]
;  [CreateThumbnail]
;Generated with Cura_SteamEngine 5.7.0
;
;

;
;



; Pre-Processed for Cancel-Object support by preprocess_cancellation v0.2.0
; 2 known objects
EXCLUDE_OBJECT_DEFINE NAME=cable_clip_roundy_preten5deg_th2mm_w10mm_sw19_5mm_sh6_5mm_1xhd3mm_han6mm_cyl5mm_stl CENTER=149.748,157.181 POLYGON=[[145.257,129.228],[145.257,170.767],[154.735,170.767],[154.735,129.228]]
EXCLUDE_OBJECT_DEFINE NAME=cable_clip_roundy_preten5deg_th2mm_w10mm_sw13mm_sh6_5mm_1xhd3mm_han6mm_cyl5mm_stl CENTER=160.166,143.630 POLYGON=[[134.672,118.646],[134.672,181.346],[175.045,181.346],[175.045,118.646]]
M82 ;absolute extrusion mode
start_print BED_TEMP=60 EXTRUDER_TEMP=205.0 MATERIAL='PLA'
G92 E0
G92 E0
G1 F2700 E-5
;LAYER_COUNT:50
;LAYER:0
M107
G0 F9000 X143.105 Y121.644 Z0.2
;TYPE:SKIRT
G1 F2700 E0
G1 F2400 X143.806 Y120.911 E0.0506
G1 X144.571 Y120.241 E0.10134
G1 X145.376 Y119.653 E0.15107
G1 X145.767 Y119.396 E0.17441
G1 X146.546 Y118.931 E0.21968
G1 X147.56 Y118.442 E0.27584
G1 X148.703 Y118.02 E0.33663
G1 X149.797 Y117.726 E0.39314
G1 X150.69 Y117.566 E0.4384
G1 X151.587 Y117.477 E0.48338
G1 X151.891 Y117.46 E0.49857
G1 X152.798 Y117.446 E0.54382
G1 X153.906 Y117.526 E0.59924
G1 X154.817 Y117.667 E0.64523
G1 X156.39 Y118.077 E0.72633
G1 X157.875 Y118.57 E0.8044
G1 X160.32 Y119.331 E0.93215
G1 X162.724 Y120.006 E1.05672
G1 X164.085 Y120.34 E1.12664
G1 X164.309 Y120.406 E1.13829
G1 X165.375 Y120.675 E1.19314
G1 X166.011 Y120.858 E1.22616
G1 X166.475 Y121.008 E1.25049
G1 X167.762 Y121.514 E1.31948
G1 X168.077 Y121.661 E1.33682
G1 X169.371 Y122.37 E1.41044
G1 X169.656 Y122.552 E1.42731
G1 X170.767 Y123.357 E1.49575
G1 X170.991 Y123.541 E1.51022
G1 X172.087 Y124.569 E1.58519
G1 X172.345 Y124.846 E1.60407
G1 X173.182 Y125.854 E1.66944
G1 X173.405 Y126.16 E1.68833
G1 X174.144 Y127.313 E1.75665
G1 X174.413 Y127.798 E1.78432
G1 X174.861 Y128.707 E1.83488
G1 X175.192 Y129.552 E1.88016
G1 X175.461 Y130.434 E1.92616
G1 X175.572 Y130.861 E1.94817
G1 X175.844 Y132.266 E2.01957
G1 X175.902 Y132.722 E2.0425
G1 X175.989 Y133.99 E2.10591
G1 X175.993 Y134.419 E2.12732
G1 X175.975 Y135.088 E2.1607
G1 X175.928 Y135.942 E2.20337
G1 X175.824 Y138.464 E2.3293
G1 X175.79 Y141.021 E2.45689
G1 X175.83 Y143.553 E2.58322
G1 X175.935 Y145.987 E2.70477
G1 X176.21 Y149.724 E2.89171
G1 X176.24 Y150.426 E2.92677
G1 X176.245 Y151.022 E2.9565
G1 X176.201 Y152.087 E3.00968
G1 X176.122 Y152.967 E3.05376
G1 X175.931 Y154.246 E3.11828
G1 X175.777 Y154.943 E3.15389
G1 X175.664 Y155.389 E3.17684
G1 X175.373 Y156.353 E3.22708
G1 X175.102 Y157.119 E3.26762
G1 X174.565 Y158.383 E3.33614
G1 X173.968 Y159.577 E3.40274
G1 X173.281 Y160.879 E3.47618
G1 X172.163 Y163.144 E3.6022
G1 X171.128 Y165.4 E3.72603
G1 X170.162 Y167.672 E3.8492
G1 X169.181 Y170.173 E3.98323
G1 X168.858 Y171.027 E4.02878
G1 X168.457 Y171.959 E4.0794
G1 X168.001 Y172.804 E4.12731
G1 X167.442 Y173.656 E4.17814
G1 X166.634 Y174.658 E4.24236
G1 X166.367 Y174.951 E4.26214
G1 X165.729 Y175.596 E4.3074
G1 X164.872 Y176.32 E4.36337
G1 X163.97 Y176.951 E4.41829
G1 X162.982 Y177.521 E4.4752
G1 X161.739 Y178.076 E4.54311
G1 X161.152 Y178.296 E4.57439
G1 X158.8 Y179.212 E4.70031
G1 X156.451 Y180.203 E4.82751
G1 X153.767 Y181.428 E4.9747
G1 X152.876 Y181.786 E5.02261
G1 X151.875 Y182.09 E5.0748
G1 X151.263 Y182.229 E5.10611
G1 X150.701 Y182.338 E5.13467
G1 X149.703 Y182.487 E5.18501
G1 X148.774 Y182.546 E5.23145
G1 X147.637 Y182.536 E5.28818
G1 X147.303 Y182.516 E5.30488
G1 X145.849 Y182.336 E5.37797
G1 X145.506 Y182.271 E5.39539
G1 X144.222 Y181.948 E5.46144
G1 X143.925 Y181.855 E5.47697
G1 X142.521 Y181.31 E5.55211
G1 X142.206 Y181.163 E5.56945
G1 X140.912 Y180.454 E5.64306
G1 X140.627 Y180.272 E5.65993
G1 X139.516 Y179.467 E5.72838
G1 X139.292 Y179.283 E5.74284
G1 X138.196 Y178.255 E5.81781
G1 X137.914 Y177.951 E5.8385
G1 X137.115 Y176.987 E5.90097
G1 X136.891 Y176.682 E5.91984
G1 X136.114 Y175.468 E5.99175
G1 X135.878 Y175.04 E6.01614
G1 X135.419 Y174.107 E6.06801
G1 X135.056 Y173.17 E6.11815
G1 X134.824 Y172.395 E6.15851
G1 X134.713 Y171.969 E6.18047
G1 X134.444 Y170.59 E6.25056
G1 X134.38 Y170.094 E6.27552
G1 X134.294 Y168.832 E6.33862
G1 X134.29 Y168.404 E6.35998
G1 X134.308 Y167.732 E6.39352
G1 X134.356 Y166.873 E6.43644
G1 X134.46 Y164.341 E6.56287
G1 X134.493 Y161.781 E6.6906
G1 X134.453 Y159.275 E6.81564
G1 X134.346 Y156.809 E6.93878
G1 X134.15 Y154.133 E7.07265
G1 X133.567 Y147.445 E7.40758
G1 X133.502 Y146.556 E7.45205
G1 X133.476 Y145.866 E7.4865
G1 X133.472 Y145.345 E7.51249
G1 X133.517 Y144.257 E7.56682
G1 X133.601 Y143.338 E7.61286
G1 X133.775 Y142.158 E7.67236
G1 X133.941 Y141.401 E7.71103
G1 X134.046 Y140.984 E7.73248
G1 X134.352 Y139.969 E7.78537
G1 X134.647 Y139.137 E7.82941
G1 X135.164 Y137.912 E7.89575
G1 X135.463 Y137.314 E7.9291
G1 X136.403 Y135.531 E8.02966
G1 X137.538 Y133.234 E8.15749
G1 X138.58 Y130.967 E8.28196
G1 X139.545 Y128.697 E8.40502
G1 X140.574 Y126.069 E8.54583
G1 X140.836 Y125.372 E8.58298
G1 X141.237 Y124.44 E8.63359
G1 X141.718 Y123.549 E8.68411
G1 X142.259 Y122.725 E8.73329
G1 X142.471 Y122.434 E8.75125
G1 X143.105 Y121.644 E8.80179
G0 F9000 X143.539 Y122.058
G1 F2400 X144.202 Y121.362 E8.84974
G1 X144.925 Y120.726 E8.89778
G1 X145.73 Y120.138 E8.94752
G1 X146.075 Y119.911 E8.96812
G1 X146.854 Y119.446 E9.01338
G1 X147.769 Y119.004 E9.06408
G1 X148.859 Y118.599 E9.12209
G1 X149.903 Y118.317 E9.17605
G1 X150.796 Y118.157 E9.22131
G1 X151.621 Y118.076 E9.26266
G1 X151.9 Y118.06 E9.27661
G1 X152.807 Y118.046 E9.32186
G1 X153.814 Y118.119 E9.37223
G1 X154.725 Y118.26 E9.41822
G1 X156.201 Y118.646 E9.49434
G1 X157.697 Y119.143 E9.57299
G1 X160.158 Y119.909 E9.70158
G1 X162.572 Y120.587 E9.82667
G1 X163.916 Y120.916 E9.8957
G1 X164.151 Y120.985 E9.90792
G1 X165.209 Y121.252 E9.96236
G1 X165.845 Y121.435 E9.99538
G1 X166.256 Y121.567 E10.01691
G1 X167.508 Y122.058 E10.08401
G1 X167.823 Y122.205 E10.10135
G1 X169.048 Y122.876 E10.17103
G1 X169.333 Y123.058 E10.1879
G1 X170.386 Y123.821 E10.25278
G1 X170.61 Y124.005 E10.26724
G1 X171.648 Y124.978 E10.33822
G1 X171.906 Y125.255 E10.35711
G1 X172.698 Y126.208 E10.41893
G1 X172.9 Y126.484 E10.43599
G1 X173.639 Y127.637 E10.50432
G1 X173.875 Y128.064 E10.52866
G1 X174.302 Y128.926 E10.57665
G1 X174.633 Y129.771 E10.62193
G1 X174.88 Y130.585 E10.66437
G1 X174.991 Y131.012 E10.68638
G1 X175.249 Y132.343 E10.75402
G1 X175.303 Y132.763 E10.77514
G1 X175.39 Y134.031 E10.83855
G1 X175.393 Y134.403 E10.85711
G1 X175.376 Y135.055 E10.88965
G1 X175.329 Y135.909 E10.93232
G1 X175.224 Y138.456 E11.0595
G1 X175.19 Y141.013 E11.18708
G1 X175.23 Y143.562 E11.31427
G1 X175.337 Y146.031 E11.43756
G1 X175.611 Y149.75 E11.62361
G1 X175.64 Y150.431 E11.65761
G1 X175.645 Y150.998 E11.6859
G1 X175.603 Y152.033 E11.73758
G1 X175.524 Y152.913 E11.78166
G1 X175.345 Y154.117 E11.84239
G1 X175.195 Y154.796 E11.87708
G1 X175.089 Y155.216 E11.89869
G1 X174.807 Y156.153 E11.94751
G1 X174.536 Y156.919 E11.98805
G1 X174.028 Y158.115 E12.05288
G1 X173.437 Y159.297 E12.11881
G1 X172.75 Y160.599 E12.19225
G1 X171.625 Y162.879 E12.31909
G1 X170.576 Y165.165 E12.44458
G1 X169.603 Y167.453 E12.56862
G1 X168.623 Y169.954 E12.70263
G1 X168.307 Y170.791 E12.74727
G1 X167.928 Y171.675 E12.79525
G1 X167.499 Y172.475 E12.84054
G1 X166.94 Y173.327 E12.89138
G1 X166.19 Y174.254 E12.95087
G1 X165.94 Y174.529 E12.96941
G1 X165.302 Y175.174 E13.01467
G1 X164.527 Y175.829 E13.0653
G1 X163.67 Y176.431 E13.11755
G1 X162.682 Y177.001 E13.17445
G1 X161.528 Y177.514 E13.23746
G1 X160.941 Y177.734 E13.26873
G1 X158.567 Y178.659 E13.39585
G1 X156.209 Y179.654 E13.52353
G1 X153.543 Y180.871 E13.66974
G1 X152.652 Y181.229 E13.71765
G1 X151.742 Y181.505 E13.76509
G1 X151.148 Y181.64 E13.79548
G1 X150.611 Y181.745 E13.82278
G1 X149.664 Y181.888 E13.87056
G1 X148.779 Y181.946 E13.91481
G1 X147.673 Y181.937 E13.96999
G1 X147.339 Y181.917 E13.98668
G1 X145.961 Y181.746 E14.05596
G1 X145.618 Y181.681 E14.07338
G1 X144.401 Y181.375 E14.13598
G1 X144.104 Y181.282 E14.15151
G1 X142.775 Y180.766 E14.22264
G1 X142.46 Y180.619 E14.23998
G1 X141.235 Y179.948 E14.30966
G1 X140.95 Y179.766 E14.32653
G1 X139.897 Y179.003 E14.39141
G1 X139.673 Y178.819 E14.40587
G1 X138.635 Y177.846 E14.47685
G1 X138.376 Y177.568 E14.49581
G1 X137.599 Y176.632 E14.5565
G1 X137.375 Y176.327 E14.57538
G1 X136.639 Y175.177 E14.64349
G1 X136.416 Y174.774 E14.66647
G1 X135.978 Y173.889 E14.71574
G1 X135.631 Y172.998 E14.76344
G1 X135.405 Y172.244 E14.80271
G1 X135.294 Y171.818 E14.82467
G1 X135.039 Y170.512 E14.89106
G1 X134.979 Y170.053 E14.91416
G1 X134.893 Y168.791 E14.97726
G1 X134.89 Y168.42 E14.99577
G1 X134.907 Y167.765 E15.02846
G1 X134.955 Y166.906 E15.07139
G1 X135.06 Y164.349 E15.19906
G1 X135.093 Y161.789 E15.32679
G1 X135.053 Y159.265 E15.45273
G1 X134.945 Y156.783 E15.57667
G1 X134.748 Y154.081 E15.71184
G1 X134.165 Y147.402 E16.04632
G1 X134.102 Y146.533 E16.08979
G1 X134.076 Y145.861 E16.12334
G1 X134.072 Y145.369 E16.14789
G1 X134.115 Y144.311 E16.20071
G1 X134.195 Y143.426 E16.24505
G1 X134.369 Y142.246 E16.30455
G1 X134.523 Y141.547 E16.34026
G1 X134.621 Y141.157 E16.36033
G1 X134.918 Y140.17 E16.41175
G1 X135.213 Y139.338 E16.45579
G1 X135.701 Y138.18 E16.51848
G1 X135.994 Y137.594 E16.55117
G1 X136.934 Y135.811 E16.65173
G1 X138.076 Y133.5 E16.78033
G1 X139.125 Y131.218 E16.90563
G1 X140.104 Y128.916 E17.03044
G1 X141.133 Y126.288 E17.17124
G1 X141.388 Y125.608 E17.20747
G1 X141.766 Y124.724 E17.25544
G1 X142.22 Y123.878 E17.30334
G1 X142.761 Y123.054 E17.35252
G1 X142.94 Y122.808 E17.3677
G1 X143.539 Y122.058 E17.41558
G0 F9000 X143.974 Y122.471
G1 F2400 X144.599 Y121.812 E17.46089
G1 X145.279 Y121.211 E17.50617
G1 X146.084 Y120.623 E17.55591
G1 X146.383 Y120.426 E17.57377
G1 X147.162 Y119.961 E17.61903
G1 X147.979 Y119.566 E17.66431
G1 X149.016 Y119.178 E17.71954
G1 X150.009 Y118.908 E17.77088
G1 X150.902 Y118.748 E17.81615
G1 X151.657 Y118.675 E17.85399
G1 X151.909 Y118.66 E17.86658
G1 X152.816 Y118.646 E17.91184
G1 X153.722 Y118.712 E17.95716
G1 X154.633 Y118.853 E18.00315
G1 X156.012 Y119.215 E18.07428
G1 X157.519 Y119.716 E18.15351
G1 X159.996 Y120.487 E18.28294
G1 X162.413 Y121.166 E18.40819
G1 X163.747 Y121.492 E18.4767
G1 X163.993 Y121.564 E18.48949
G1 X165.044 Y121.829 E18.54356
G1 X165.662 Y122.006 E18.57564
G1 X166.037 Y122.126 E18.59528
G1 X167.254 Y122.602 E18.66048
G1 X167.569 Y122.749 E18.67782
G1 X168.727 Y123.383 E18.74368
G1 X168.981 Y123.544 E18.75869
G1 X170.005 Y124.285 E18.82175
G1 X170.229 Y124.469 E18.83621
G1 X171.21 Y125.388 E18.90327
G1 X171.445 Y125.639 E18.92043
G1 X172.215 Y126.564 E18.98047
G1 X172.395 Y126.808 E18.9956
G1 X173.114 Y127.928 E19.062
G1 X173.338 Y128.332 E19.08504
G1 X173.743 Y129.145 E19.13036
G1 X174.074 Y129.99 E19.17564
G1 X174.299 Y130.736 E19.21451
G1 X174.41 Y131.163 E19.23652
G1 X174.654 Y132.421 E19.30045
G1 X174.704 Y132.804 E19.31972
G1 X174.791 Y134.072 E19.38313
G1 X174.793 Y134.388 E19.3989
G1 X174.777 Y135.022 E19.43054
G1 X174.73 Y135.876 E19.47321
G1 X174.624 Y138.448 E19.60164
G1 X174.59 Y141.005 E19.72922
G1 X174.63 Y143.571 E19.85725
G1 X174.739 Y146.075 E19.98229
G1 X175.012 Y149.775 E20.16739
G1 X175.04 Y150.437 E20.20045
G1 X175.045 Y150.974 E20.22724
G1 X175.005 Y151.98 E20.27747
G1 X174.93 Y152.826 E20.31984
G1 X174.759 Y153.988 E20.37844
G1 X174.613 Y154.65 E20.41226
G1 X174.514 Y155.044 E20.43253
G1 X174.241 Y155.954 E20.47992
G1 X173.984 Y156.684 E20.51854
G1 X173.476 Y157.88 E20.58336
G1 X172.906 Y159.017 E20.64682
G1 X172.219 Y160.319 E20.72026
G1 X171.087 Y162.613 E20.84789
G1 X170.024 Y164.93 E20.97507
G1 X169.044 Y167.234 E21.09998
G1 X168.064 Y169.735 E21.23399
G1 X167.755 Y170.556 E21.27776
G1 X167.399 Y171.391 E21.32304
G1 X166.97 Y172.191 E21.36833
G1 X166.473 Y172.95 E21.4136
G1 X165.745 Y173.851 E21.47139
G1 X165.513 Y174.107 E21.48862
G1 X164.875 Y174.752 E21.53388
G1 X164.182 Y175.338 E21.57916
G1 X163.325 Y175.94 E21.63141
G1 X162.438 Y176.453 E21.68253
G1 X161.284 Y176.966 E21.74554
G1 X160.723 Y177.175 E21.77541
G1 X158.334 Y178.106 E21.90332
G1 X155.967 Y179.105 E22.0315
G1 X153.318 Y180.315 E22.1768
G1 X152.477 Y180.655 E22.22205
G1 X151.609 Y180.92 E22.26733
G1 X151.032 Y181.051 E22.29685
G1 X150.52 Y181.152 E22.32289
G1 X149.623 Y181.289 E22.36816
G1 X148.783 Y181.346 E22.41016
G1 X147.709 Y181.338 E22.46374
G1 X147.375 Y181.318 E22.48044
G1 X146.073 Y181.156 E22.54589
G1 X145.73 Y181.091 E22.56331
G1 X144.548 Y180.793 E22.62413
G1 X144.285 Y180.71 E22.63789
G1 X143.029 Y180.222 E22.70511
G1 X142.714 Y180.075 E22.72245
G1 X141.556 Y179.441 E22.78832
G1 X141.302 Y179.28 E22.80332
G1 X140.278 Y178.539 E22.86638
G1 X140.054 Y178.355 E22.88084
G1 X139.073 Y177.436 E22.94791
G1 X138.838 Y177.185 E22.96506
G1 X138.061 Y176.249 E23.02575
G1 X137.88 Y176.003 E23.04099
G1 X137.164 Y174.886 E23.10718
G1 X136.941 Y174.483 E23.13016
G1 X136.537 Y173.67 E23.17545
G1 X136.206 Y172.825 E23.22073
G1 X135.986 Y172.093 E23.25886
G1 X135.875 Y171.667 E23.28083
G1 X135.628 Y170.397 E23.34537
G1 X135.578 Y170.012 E23.36474
G1 X135.492 Y168.75 E23.42785
G1 X135.49 Y168.435 E23.44357
G1 X135.506 Y167.798 E23.47536
G1 X135.554 Y166.939 E23.51828
G1 X135.66 Y164.357 E23.6472
G1 X135.693 Y161.797 E23.77493
G1 X135.653 Y159.256 E23.90172
G1 X135.544 Y156.757 E24.02652
G1 X135.346 Y154.029 E24.16297
G1 X134.763 Y147.359 E24.49701
G1 X134.702 Y146.509 E24.53953
G1 X134.676 Y145.856 E24.57213
G1 X134.672 Y145.364 E24.59668
G1 X134.713 Y144.364 E24.64661
G1 X134.789 Y143.513 E24.68923
G1 X134.955 Y142.375 E24.74661
G1 X135.105 Y141.693 E24.78145
G1 X135.203 Y141.303 E24.80151
G1 X135.484 Y140.371 E24.85008
G1 X135.779 Y139.539 E24.89412
G1 X136.238 Y138.448 E24.95317
G1 X136.525 Y137.874 E24.98518
G1 X137.465 Y136.091 E25.08574
G1 X138.614 Y133.766 E25.21513
G1 X139.67 Y131.469 E25.34126
G1 X140.663 Y129.135 E25.4678
G1 X141.692 Y126.507 E25.60861
G1 X141.94 Y125.843 E25.64397
G1 X142.295 Y125.007 E25.68928
G1 X142.722 Y124.207 E25.73452
G1 X143.247 Y123.406 E25.7823
G1 X143.41 Y123.181 E25.79617
G1 X143.974 Y122.471 E25.8414
G1 F2700 E20.8414
;MESH:cable-clip-roundy-preten5deg-th2mm-w10mm-sw19_5mm-sh6_5mm-1xhd3mm-han6mm-cyl5mm.stl
EXCLUDE_OBJECT_START NAME=cable_clip_roundy_preten5deg_th2mm_w10mm_sw19_5mm_sh6_5mm_1xhd3mm_han6mm_cyl5mm_stl
G0 F9000 X144.513 Y145.971
G0 X145.518 Y157.47
G0 X145.631 Y158.204
G0 X148.043 Y165.618
G0 X148.429 Y169.955
;TYPE:WALL-INNER
G1 F2700 E25.8414
G1 F2400 X148.848 Y169.855 E25.86289
G1 X149.2 Y169.608 E25.88435
G1 X149.493 Y169.271 E25.90663
G1 X149.641 Y168.839 E25.92941
G1 X149.666 Y168.498 E25.94647
G1 X149.618 Y168.081 E25.96741
G1 X149.632 Y167.787 E25.98209
G1 X149.799 Y167.505 E25.99844
G1 X149.477 Y167.575 E26.01488
G1 X149.195 Y167.498 E26.02947
G1 X148.777 Y167.243 E26.0539
G1 X148.209 Y167.161 E26.08253
G1 X147.77 Y167.264 E26.10502
G1 X147.467 Y167.429 E26.12224
G1 X147.217 Y167.656 E26.13908
G1 X147.016 Y167.954 E26.15702
G1 X146.905 Y168.286 E26.17448
G1 X146.878 Y168.635 E26.19195
G1 X146.934 Y168.969 E26.20884
G1 X147.082 Y169.296 E26.22675
G1 X147.349 Y169.636 E26.24832
G1 X147.743 Y169.861 E26.27095
G1 X148.072 Y169.95 E26.28796
G1 X148.429 Y169.955 E26.30577
G0 F9000 X148.097 Y170.568
;TYPE:WALL-OUTER
G1 F2400 X148.611 Y170.548 E26.33143
G1 X149.099 Y170.4 E26.35687
G1 X149.525 Y170.136 E26.38188
G1 X149.792 Y169.86 E26.40104
G1 X150.061 Y169.456 E26.42525
G1 X150.155 Y169.222 E26.43783
G1 X150.257 Y168.867 E26.45626
G1 X150.267 Y168.47 E26.47607
G1 X150.214 Y168.011 E26.49912
G1 F2054.2 X150.249 Y167.672 E26.51899
G1 F1802.3 X153.467 Y165.412 E26.78024
G1 F1800 X153.662 Y165.252 E26.79702
G1 X153.896 Y165.006 E26.8196
G1 X154.077 Y164.752 E26.84035
G1 F1797.8 X154.219 Y164.485 E26.86049
G1 X154.344 Y164.144 E26.88468
G1 F1802.3 X154.414 Y163.839 E26.90547
G1 F1815.9 X154.439 Y163.523 E26.92637
G1 F1804.5 X154.416 Y163.178 E26.94932
