;FLAVOR:Marlin
;TIME:3789
;Filament used: 4.94453m
;Layer height: 0.2
;MINX:116.212
;MINY:116.93
;MINZ:0.24
;MAXX:183.789
;MAXY:183.79
;MAXZ:23.29
;TARGET_MACHINE.NAME:Creality CR-10
;POSTPROCESSED
;  [CreateThumbnail]
;  [CreateThumbnail]
;Generated with Cura_SteamEngine 5.7.0
;
;

;
;



; Pre-Processed for Cancel-Object support by preprocess_cancellation v0.2.0
; 1 known objects
EXCLUDE_OBJECT_DEFINE NAME=2_cable_corners_stl CENTER=136.474,136.348 POLYGON=[[127.172,127.172],[127.172,172.824],[172.824,172.824],[172.824,127.172]]
M82 ;absolute extrusion mode
start_print BED_TEMP=60 EXTRUDER_TEMP=205.0 MATERIAL='PLA'
G92 E0
G92 E0
G1 F2700 E-5
;LAYER_COUNT:111
;LAYER:-6
M107
G0 F9000 X120.467 Y120.575 Z0.24
;TYPE:SUPPORT-INTERFACE
G1 F2700 E0
G1 F1125 X121.088 Y119.992 E0.10199
G1 X121.648 Y119.553 E0.18719
G1 X121.95 Y119.337 E0.23165
G1 X121.964 Y119.339 E0.23334
G1 X122.509 Y118.985 E0.31115
G1 X122.857 Y118.786 E0.35915
G1 X123.752 Y118.314 E0.48031
G1 X123.772 Y118.328 E0.48323
G1 X124.206 Y118.149 E0.53944
G1 X124.463 Y118.059 E0.57205
G1 X124.944 Y117.915 E0.63217
G1 X124.96 Y117.928 E0.63463
G1 X125.434 Y117.762 E0.69477
G1 X126.526 Y117.564 E0.82765
G1 X127.382 Y117.484 E0.93059
G1 X127.867 Y117.475 E0.98868
G1 X173.039 Y117.472 E6.39741
G1 X173.962 Y117.511 E6.50803
G1 X174.755 Y117.621 E6.60389
G1 X175.003 Y117.668 E6.63411
G1 X175.614 Y117.811 E6.70925
G1 X176.428 Y118.075 E6.81171
G1 X177.192 Y118.402 E6.91122
G1 X177.932 Y118.797 E7.01166
G1 X178.642 Y119.266 E7.11354
G1 X179.309 Y119.797 E7.21562
G1 X179.907 Y120.365 E7.31438
G1 X180.451 Y120.984 E7.41305
G1 X180.955 Y121.677 E7.51565
G1 X181.387 Y122.395 E7.61598
G1 X181.691 Y123.02 E7.6992
G1 X181.792 Y123.251 E7.72939
G1 X182.051 Y123.939 E7.81741
G1 X182.241 Y124.603 E7.90011
G1 X182.425 Y125.531 E8.01338
G1 X182.512 Y126.472 E8.12654
G1 X182.524 Y126.861 E8.17314
G1 X182.524 Y138.787 E9.60111
G1 X182.485 Y139.703 E9.71089
G1 X182.387 Y140.441 E9.80003
G1 X182.329 Y140.753 E9.83803
G1 X182.158 Y141.447 E9.92361
G1 X181.921 Y142.181 E10.01597
G1 X181.641 Y142.835 E10.10115
G1 X181.24 Y143.607 E10.20531
G1 X180.819 Y144.262 E10.29854
G1 X180.663 Y144.478 E10.33045
G1 X180.141 Y145.119 E10.42943
G1 X179.632 Y145.654 E10.51785
G1 X178.996 Y146.21 E10.619
G1 X178.315 Y146.707 E10.71994
G1 X177.598 Y147.139 E10.82017
G1 X176.823 Y147.512 E10.92316
G1 X176.071 Y147.797 E11.01945
G1 X175.386 Y147.99 E11.10466
G1 X175.136 Y148.048 E11.13539
G1 X174.433 Y148.181 E11.22106
G1 X173.511 Y148.264 E11.3319
G1 X173.207 Y148.271 E11.36831
G1 X153.815 Y148.277 E13.69024
G1 X153.121 Y148.326 E13.77355
G1 X152.479 Y148.452 E13.85188
G1 X151.769 Y148.687 E13.94143
G1 X151.123 Y148.994 E14.02707
G1 X150.524 Y149.385 E14.11272
G1 X150.004 Y149.826 E14.19436
G1 X149.521 Y150.352 E14.27987
G1 X149.112 Y150.929 E14.36455
G1 X148.796 Y151.512 E14.44395
G1 X148.536 Y152.183 E14.53012
G1 X148.357 Y152.916 E14.62046
G1 X148.276 Y153.829 E14.73021
G1 X148.272 Y173.028 E17.02903
G1 X148.237 Y173.951 E17.13963
G1 X148.135 Y174.691 E17.22907
G1 X148.08 Y175.004 E17.26712
G1 X147.91 Y175.695 E17.35233
G1 X147.669 Y176.433 E17.44528
G1 X147.392 Y177.087 E17.53033
G1 X146.958 Y177.918 E17.64258
G1 X146.481 Y178.639 E17.74609
G1 X145.966 Y179.29 E17.84548
G1 X145.38 Y179.906 E17.94728
G1 X144.748 Y180.459 E18.04784
G1 X144.063 Y180.959 E18.14938
G1 X143.35 Y181.387 E18.24895
G1 X142.575 Y181.763 E18.35209
G1 X141.821 Y182.045 E18.44848
G1 X140.885 Y182.301 E18.56467
G1 X140.183 Y182.428 E18.65009
G1 X139.256 Y182.512 E18.76154
G1 X138.875 Y182.524 E18.80719
G1 X126.961 Y182.524 E20.23373
G1 X126.034 Y182.485 E20.34482
G1 X125.162 Y182.365 E20.45021
G1 X124.761 Y182.271 E20.49953
G1 X124.749 Y182.282 E20.50148
G1 X124.297 Y182.157 E20.55763
G1 X123.578 Y181.925 E20.64809
G1 X122.801 Y181.594 E20.74922
G1 X122.049 Y181.188 E20.85154
G1 X121.353 Y180.73 E20.95131
G1 X120.683 Y180.195 E21.05397
G1 X120.16 Y179.698 E21.14036
G1 X119.54 Y179.003 E21.25187
G1 X119.028 Y178.299 E21.3561
G1 X118.578 Y177.532 E21.46258
G1 X118.239 Y176.837 E21.55517
G1 X118.006 Y176.225 E21.63358
G1 X117.918 Y175.964 E21.66656
G1 X117.722 Y175.256 E21.75452
G1 X117.539 Y174.27 E21.8746
G1 X117.55 Y174.258 E21.87655
G1 X117.491 Y173.652 E21.94945
G1 X117.473 Y173.113 E22.01402
G1 X117.48 Y127.618 E27.46143
G1 X117.511 Y126.952 E27.54127
G1 X117.537 Y126.649 E27.57768
G1 X117.613 Y126.129 E27.6406
G1 X117.668 Y125.825 E27.67759
G1 X117.829 Y125.159 E27.75964
G1 X118.116 Y124.307 E27.86728
G1 X118.305 Y123.831 E27.92861
G1 X118.633 Y123.106 E28.02389
G1 X119.026 Y122.396 E28.12105
G1 X119.779 Y121.364 E28.27402
G1 X120.467 Y120.575 E28.39936
G0 F9000 X120.948 Y120.948
G1 F1125 X149.495 Y149.495 E33.23331
G1 F2700 E28.23331
G0 F9000 X151.529 Y148.135
G1 F2700 E33.23331
G1 F1125 X122.866 Y119.472 E38.0869
G1 F2700 E33.0869
G0 F9000 X125.252 Y118.464
G1 F2700 E38.0869
G1 F1125 X154.465 Y147.677 E43.03363
G1 F2700 E38.03363
G0 F9000 X157.857 Y147.675
G1 F2700 E43.03363
G1 F1125 X128.257 Y118.075 E48.04588
G1 F2700 E43.04588
G0 F9000 X131.651 Y118.075
G1 F2700 E48.04588
G1 F1125 X161.249 Y147.672 E53.05771
G1 F2700 E48.05771
G0 F9000 X164.641 Y147.67
G1 F2700 E53.05771
G1 F1125 X135.045 Y118.075 E58.06921
G1 F2700 E53.06921
G0 F9000 X138.439 Y118.075
G1 F2700 E58.06921
G1 F1125 X168.033 Y147.668 E63.08036
G1 F2700 E58.08036
G0 F9000 X171.424 Y147.665
G1 F2700 E63.08036
G1 F1125 X141.833 Y118.074 E68.09109
G1 F2700 E63.09109
G0 F9000 X145.227 Y118.074
G1 F2700 E68.09109
G1 F1125 X174.677 Y147.524 E73.07795
G1 F2700 E68.07795
G0 F9000 X177.207 Y146.66
G1 F2700 E73.07795
G1 F1125 X148.621 Y118.074 E77.9185
G1 F2700 E72.9185
G0 F9000 X152.015 Y118.073
G1 F2700 E77.9185
G1 F1125 X179.187 Y145.246 E82.5197
G1 F2700 E77.5197
G0 F9000 X180.69 Y143.355
G1 F2700 E82.5197
G1 F1125 X155.409 Y118.073 E86.80069
G1 F2700 E81.80069
G0 F9000 X158.803 Y118.073
G1 F2700 E86.80069
G1 F1125 X181.666 Y140.937 E90.67224
G1 F2700 E85.67224
G0 F9000 X181.924 Y137.801
G1 F2700 E90.67224
G1 F1125 X162.196 Y118.073 E94.01284
G1 F2700 E89.01284
G0 F9000 X165.59 Y118.073
G1 F2700 E94.01284
G1 F1125 X181.924 Y134.407 E96.77872
G1 F2700 E91.77872
G0 F9000 X181.924 Y131.013
G1 F2700 E96.77872
G1 F1125 X168.984 Y118.073 E98.96989
G1 F2700 E93.96989
G0 F9000 X172.378 Y118.073
G1 F2700 E98.96989
G1 F1125 X181.924 Y127.619 E100.58634
G1 F2700 E95.58634
G0 F9000 X181.272 Y123.572
G1 F2700 E100.58634
G1 F1125 X176.427 Y118.727 E101.40676
G1 F2700 E96.40676
G0 F9000 X176.963 Y116.93
G0 X178.507 Y117.674
G0 X179.51 Y118.34
G0 X180.735 Y119.41
G0 X181.535 Y120.326
G0 X182.457 Y121.72
G0 X182.968 Y122.784
G0 X183.472 Y124.313
G0 X183.702 Y125.549
G0 X183.789 Y126.854
G0 X183.753 Y139.701
G0 X183.585 Y140.927
G0 X183.146 Y142.509
G0 X182.669 Y143.619
G0 X181.843 Y145.007
G0 X181.075 Y145.977
G0 X179.891 Y147.111
G0 X178.901 Y147.834
G0 X177.453 Y148.614
G0 X176.342 Y149.038
G0 X174.861 Y149.38
G0 X149.941 Y152.056
G0 X148.145 Y151.539
G1 F2700 E101.40676
G1 F1125 X119.459 Y122.853 E106.26425
G1 F2700 E101.26425
G0 F9000 X118.439 Y125.227
G1 F2700 E106.26425
G1 F1125 X147.677 Y154.465 E111.2152
G1 F2700 E106.2152
G0 F9000 X147.676 Y157.859
G1 F2700 E111.2152
G1 F1125 X118.08 Y128.262 E116.22687
G1 F2700 E111.22687
G0 F9000 X118.08 Y131.656
G1 F2700 E116.22687
G1 F1125 X147.675 Y161.251 E121.23828
G1 F2700 E116.23828
G0 F9000 X147.674 Y164.645
G1 F2700 E121.23828
G1 F1125 X118.079 Y135.05 E126.24969
G1 F2700 E121.24969
G0 F9000 X118.078 Y138.443
G1 F2700 E126.24969
G1 F1125 X147.674 Y168.038 E131.26118
G1 F2700 E126.26118
G0 F9000 X147.672 Y171.431
G1 F2700 E131.26118
G1 F1125 X118.078 Y141.836 E136.2725
G1 F2700 E131.2725
G0 F9000 X118.078 Y145.231
G1 F2700 E136.2725
G1 F1125 X147.528 Y174.681 E141.25936
G1 F2700 E136.25936
G0 F9000 X146.655 Y177.202
G1 F2700 E141.25936
G1 F1125 X118.077 Y148.624 E146.09856
G1 F2700 E141.09856
G0 F9000 X118.076 Y152.017
G1 F2700 E146.09856
G1 F1125 X145.241 Y179.182 E150.69849
G1 F2700 E145.69849
G0 F9000 X143.351 Y180.686
G1 F2700 E150.69849
G1 F1125 X118.076 Y155.411 E154.97838
G1 F2700 E149.97838
G0 F9000 X118.076 Y158.805
G1 F2700 E154.97838
G1 F1125 X140.936 Y181.665 E158.84933
G1 F2700 E153.84933
G0 F9000 X137.8 Y181.924
G1 F2700 E158.84933
G1 F1125 X118.075 Y162.198 E162.18951
G1 F2700 E157.18951
G0 F9000 X118.074 Y165.592
G1 F2700 E162.18951
G1 F1125 X134.406 Y181.924 E164.95505
G1 F2700 E159.95505
G0 F9000 X131.012 Y181.924
G1 F2700 E164.95505
G1 F1125 X118.073 Y168.985 E167.14605
G1 F2700 E162.14605
G0 F9000 X118.073 Y172.379
G1 F2700 E167.14605
G1 F1125 X127.618 Y181.924 E168.76233
G1 F2700 E163.76233
G0 F9000 X123.569 Y181.269
G1 F2700 E168.76233
G1 F1125 X118.724 Y176.424 E169.58275
M104 S205
G1 F2700 E164.58275
G0 F300 X118.724 Y176.424 Z0.54
G0 F9000 X117.133 Y177.45
G0 X117.936 Y178.931
G0 X118.649 Y179.904
G0 X119.806 Y181.104
G0 X120.778 Y181.867
G0 X122.154 Y182.681
G0 X123.282 Y183.16
G0 X124.869 Y183.595
G0 X126.12 Y183.743
G0 X126.935 Y183.789
G0 X139.531 Y183.764
G0 X141.169 Y183.535
G0 X142.344 Y183.205
G0 X143.879 Y182.538
G0 X144.892 Y181.923
G0 X146.192 Y180.878
G0 X147.012 Y180.011
G0 X147.99 Y178.653
G0 X148.651 Y177.316
G0 X149.109 Y176.104
G0 X147.387 Y175.336
;TIME_ELAPSED:99.985476
;LAYER:-5
;TYPE:SUPPORT
G1 F2700 E169.58275
G1 F1125 X141.09 Y181.633 E170.91561
G1 X141.631 Y181.481 E170.99972
G1 X142.353 Y181.207 E171.1153
G1 X143.075 Y180.856 E171.23546
G1 X143.733 Y180.46 E171.3504
G1 X144.383 Y179.987 E171.47072
G1 X145.043 Y179.396 E171.60332
G1 X145.511 Y178.903 E171.70506
G1 X146.001 Y178.285 E171.8231
G1 X146.394 Y177.688 E171.93008
G1 X146.815 Y176.918 E172.06142
G1 X147.113 Y176.216 E172.17557
G1 X147.361 Y175.452 E172.29579
G1 X147.51 Y174.796 E172.39647
G1 X147.64 Y173.911 E172.53035
G1 X147.671 Y173.072 E172.65601
G1 X138.818 Y181.925 E174.52989
G1 X136.839 Y181.925 E174.82609
G1 X147.671 Y171.092 E177.11897
G1 X147.672 Y169.112 E177.41531
G1 X134.859 Y181.924 E180.12729
G1 X132.88 Y181.924 E180.42349
G1 X147.673 Y167.131 E183.55466
G1 X147.674 Y165.15 E183.85116
G1 X130.9 Y181.924 E187.40165
G1 X128.921 Y181.923 E187.69785
G1 X147.674 Y163.17 E191.66723
G1 X147.674 Y161.19 E191.96357
G1 X126.941 Y181.923 E196.35205
G1 X126.088 Y181.889 E196.47982
G1 X125.127 Y181.758 E196.62498
G1 X147.675 Y159.209 E201.39774
G1 X147.676 Y157.229 E201.69409
G1 X123.614 Y181.29 E206.78709
G1 X123.081 Y181.064 E206.87374
G1 X122.287 Y180.638 E207.0086
G1 X147.676 Y155.248 E212.3827
G1 X147.677 Y153.798 E212.59973
G1 X147.73 Y153.214 E212.68749
G1 X121.146 Y179.799 E218.31453
G1 X120.543 Y179.234 E218.43821
G1 X120.163 Y178.802 E218.52432
G1 X178.804 Y120.161 E230.93664
G1 X178.271 Y119.737 E231.03858
G1 X177.649 Y119.336 E231.14934
G1 X119.341 Y177.644 E243.49118
G1 X119.105 Y177.245 E243.56056
G1 X118.794 Y176.606 E243.66692
G1 X118.686 Y176.319 E243.71282
G1 X176.331 Y118.674 E255.91432
G1 X175.462 Y118.393 E256.05101
G1 X174.787 Y118.238 E256.15467
G1 X118.243 Y174.782 E268.12312
G1 X118.164 Y174.359 E268.18753
G1 X118.085 Y173.487 E268.31858
G1 X118.076 Y172.97 E268.39597
G1 X172.968 Y118.077 E280.01486
G1 X170.988 Y118.077 E280.3112
G1 X118.076 Y170.99 E291.51099
G1 X118.076 Y169.01 E291.80734
G1 X169.008 Y118.077 E302.58803
G1 X167.029 Y118.077 E302.88423
G1 X118.076 Y167.03 E313.24592
G1 X118.076 Y165.049 E313.54242
G1 X165.049 Y118.077 E323.48491
G1 X163.069 Y118.077 E323.78126
G1 X118.076 Y163.069 E333.30465
G1 X118.076 Y161.09 E333.60085
G1 X161.089 Y118.077 E342.70525
G1 X159.109 Y118.077 E343.00159
G1 X118.076 Y159.11 E351.68689
G1 X118.077 Y157.129 E351.98339
G1 X157.129 Y118.077 E360.24938
G1 X155.149 Y118.077 E360.54573
G1 X118.077 Y155.149 E368.39262
G1 X118.077 Y153.169 E368.68896
G1 X153.169 Y118.077 E376.11675
G1 X151.189 Y118.077 E376.4131
G1 X118.077 Y151.189 E383.42179
G1 X118.078 Y149.209 E383.71814
G1 X149.21 Y118.076 E390.30784
G1 X147.23 Y118.076 E390.60419
G1 X118.078 Y147.229 E396.77479
G1 X118.078 Y145.249 E397.07113
G1 X145.25 Y118.076 E402.82263
G1 X143.27 Y118.076 E403.11898
G1 X118.078 Y143.269 E408.45138
G1 X118.078 Y141.288 E408.74788
G1 X141.291 Y118.076 E413.66118
G1 X139.311 Y118.076 E413.95753
G1 X118.078 Y139.309 E418.45184
G1 X118.078 Y137.329 E418.74819
G1 X137.331 Y118.076 E422.8234
G1 X135.351 Y118.076 E423.11974
G1 X118.078 Y135.349 E426.77585
G1 X118.079 Y133.368 E427.07235
G1 X133.371 Y118.076 E430.30915
G1 X131.391 Y118.076 E430.6055
G1 X118.079 Y131.388 E433.4232
G1 X118.079 Y129.408 E433.71955
G1 X129.411 Y118.076 E436.11815
G1 X127.799 Y118.076 E436.35942
G1 X127.422 Y118.085 E436.41586
G1 X118.09 Y127.418 E438.39123
G1 X118.111 Y126.94 E438.46285
G1 X118.223 Y126.118 E438.58701
G1 X118.39 Y125.385 E438.69953
G1 X118.751 Y124.31 E438.86926
G1 X119.086 Y123.749 E438.96705
G1 X119.042 Y123.671 E438.98046
G1 X119.219 Y123.29 E439.04333
G1 X119.557 Y122.696 E439.14562
G1 X120.293 Y121.678 E439.33364
G1 X120.904 Y120.99 E439.47136
G1 X121.473 Y120.456 E439.58815
G1 X122.096 Y119.969 E439.7065
G1 X122.74 Y119.552 E439.82133
G1 X124.343 Y118.912 E440.07967
G1 X124.223 Y118.793 E440.10497
G1 X124.645 Y118.632 E440.17257
G1 X125.004 Y118.524 E440.22868
G1 X118.515 Y125.012 E441.60207
G1 F2700 E436.60207
G0 F9000 X116.652 Y124.703
G0 X116.366 Y125.927
G0 X116.212 Y127.768
G0 X116.236 Y173.781
G0 X116.463 Y175.41
G0 X116.797 Y176.597
G0 X117.46 Y178.126
G0 X118.073 Y179.137
G0 X119.111 Y180.43
G0 X119.983 Y181.257
G0 X121.347 Y182.239
G0 X122.997 Y183.055
G0 X124.203 Y183.443
G0 X125.8 Y183.731
G0 X126.935 Y183.789
G0 X139.531 Y183.764
G0 X141.169 Y183.535
G0 X142.344 Y183.205
G0 X143.879 Y182.538
G0 X144.892 Y181.923
G0 X146.192 Y180.878
G0 X147.012 Y180.011
G0 X147.99 Y178.653
G0 X148.805 Y177.002
G0 X149.195 Y175.787
G0 X149.481 Y174.2
G0 X149.497 Y173.876
G0 X149.614 Y153.085
G0 X147.77 Y152.774
G1 F2700 E441.60207
G1 F1125 X147.965 Y151.994 E441.72241
G1 X148.232 Y151.306 E441.83287
G1 X148.636 Y150.558 E441.96011
G1 X149.101 Y149.92 E442.07827
G1 X149.634 Y149.352 E442.19485
G1 X150.171 Y148.903 E442.29961
G1 X150.838 Y148.468 E442.4188
G1 X151.544 Y148.13 E442.53595
G1 X152.356 Y147.862 E442.66393
G1 X153.245 Y147.699 E442.79921
G1 X179.793 Y121.151 E448.41852
G1 X179.982 Y121.361 E448.46081
G1 X180.45 Y122.001 E448.57948
G1 X180.628 Y122.296 E448.63104
G1 X155.25 Y147.675 E454.00281
G1 X157.229 Y147.675 E454.29901
G1 X181.289 Y123.615 E459.3917
G1 X181.48 Y124.117 E459.47209
G1 X181.695 Y124.875 E459.59002
G1 X181.742 Y125.142 E459.63059
G1 X159.209 Y147.675 E464.40007
G1 X161.189 Y147.675 E464.69641
G1 X181.924 Y126.94 E469.08531
G1 X181.924 Y128.92 E469.38166
G1 X163.169 Y147.675 E473.35146
G1 X165.149 Y147.675 E473.64781
G1 X181.924 Y130.9 E477.19851
G1 X181.923 Y132.881 E477.49501
G1 X167.129 Y147.675 E480.6264
G1 X169.109 Y147.675 E480.92274
G1 X181.922 Y134.862 E483.63482
G1 X181.922 Y136.842 E483.93117
G1 X171.089 Y147.675 E486.22415
G1 X173.069 Y147.675 E486.5205
G1 X181.922 Y138.822 E488.39438
G1 X181.89 Y139.661 E488.52004
G1 X181.76 Y140.546 E488.65392
G1 X181.611 Y141.201 E488.75446
G1 X181.363 Y141.966 E488.87483
G1 X181.07 Y142.656 E488.98703
G1 X180.723 Y143.306 E489.09731
G1 X180.257 Y144.029 E489.22605
G1 X179.76 Y144.654 E489.34556
G1 X179.293 Y145.146 E489.44709
G1 X178.633 Y145.737 E489.57969
G1 X177.983 Y146.21 E489.70001
G1 X177.325 Y146.606 E489.81495
G1 X176.603 Y146.957 E489.93511
G1 X175.881 Y147.231 E490.05069
G1 X175.341 Y147.383 E490.13465
G1 X181.637 Y141.086 E491.46741
G1 F2700 E486.46741
G0 F300 X181.637 Y141.086 Z0.74
G0 F9000 X183.585 Y140.927
G0 X183.743 Y139.63
G0 X183.789 Y138.815
G0 X183.764 Y126.215
G0 X183.537 Y124.589
G0 X183.203 Y123.401
G0 X182.533 Y121.861
G0 X181.912 Y120.842
G0 X180.878 Y119.558
G0 X180.017 Y118.743
G0 X179.63 Y118.465
G0 X178.47 Y117.652
G0 X177.404 Y118.855
;TIME_ELAPSED:218.994600
;LAYER:-4
;TYPE:SUPPORT-INTERFACE
G1 F2700 E491.46741
G1 F1500 X181.159 Y122.611 E491.73238
G1 X181.122 Y122.534 E491.73664
G1 X180.702 Y121.837 E491.77724
G1 X180.212 Y121.168 E491.81861
G1 X179.62 Y120.507 E491.86288
G1 X179.097 Y120.011 E491.89884
G1 X178.457 Y119.501 E491.93967
