;FLAVOR:Marlin
;TIME:4682
;Filament used: 4.95983m
;Layer height: 0.2
;MINX:129.792
;MINY:113.001
;MINZ:0.2
;MAXX:170.21
;MAXY:186.999
;MAXZ:60
;TARGET_MACHINE.NAME:Creality CR-10
;POSTPROCESSED
;  [CreateThumbnail]
;  [CreateThumbnail]
;Generated with Cura_SteamEngine 5.7.0
;
;

;
;



; Pre-Processed for Cancel-Object support by preprocess_cancellation v0.2.0
; 1 known objects
EXCLUDE_OBJECT_DEFINE NAME=Fantabulous_Snicket_2_stl CENTER=150.057,149.754 POLYGON=[[130.992,114.201],[130.992,185.799],[169.01,185.799],[169.01,114.201]]
M82 ;absolute extrusion mode
start_print BED_TEMP=60 EXTRUDER_TEMP=205.0 MATERIAL='PLA'
G92 E0
G92 E0
G1 F2700 E-5
;LAYER_COUNT:300
;LAYER:0
M107
G0 F6000 X134.684 Y117.473 Z0.2
;TYPE:SKIRT
G1 F2700 E0
G1 F1200 X135.473 Y116.715 E0.05459
G1 X135.894 Y116.363 E0.08196
G1 X136.524 Y115.865 E0.12203
G1 X137.376 Y115.255 E0.17431
G1 X138.381 Y114.668 E0.23237
G1 X138.861 Y114.421 E0.2593
G1 X139.834 Y113.979 E0.31262
G1 X140.802 Y113.639 E0.36381
G1 X141.959 Y113.354 E0.42326
G1 X142.762 Y113.206 E0.46399
G1 X143.757 Y113.071 E0.51409
G1 X144.579 Y113.024 E0.55516
G1 X145.869 Y113.001 E0.61953
G1 X154.601 Y113.003 E1.05517
G1 X155.363 Y113.017 E1.0932
G1 X156.782 Y113.133 E1.16423
G1 X157.496 Y113.245 E1.20028
G1 X157.925 Y113.325 E1.22206
G1 X158.936 Y113.563 E1.27387
G1 X160.248 Y114.022 E1.34322
G1 X160.735 Y114.228 E1.3696
G1 X161.674 Y114.68 E1.42159
G1 X162.504 Y115.174 E1.46978
G1 X163.449 Y115.859 E1.52801
G1 X164.266 Y116.521 E1.58047
G1 X165.031 Y117.205 E1.63167
G1 X165.868 Y118.113 E1.69328
G1 X166.386 Y118.762 E1.73471
G1 X166.944 Y119.522 E1.78175
G1 X167.166 Y119.847 E1.80138
G1 X167.673 Y120.659 E1.84914
G1 X168.095 Y121.473 E1.89489
G1 X168.483 Y122.308 E1.94082
G1 X168.878 Y123.28 E1.99317
G1 X169.124 Y123.983 E2.03032
G1 X169.388 Y124.807 E2.07349
G1 X169.626 Y125.704 E2.11979
G1 X169.792 Y126.506 E2.16065
G1 X169.957 Y127.462 E2.20905
G1 X170.063 Y128.256 E2.24902
G1 X170.153 Y129.327 E2.30264
G1 X170.2 Y130.519 E2.36215
G1 X170.21 Y131.309 E2.40157
G1 X170.209 Y168.786 E4.2713
G1 X170.189 Y169.729 E4.31836
G1 X170.154 Y170.55 E4.35936
G1 X170.089 Y171.455 E4.40462
G1 X169.975 Y172.405 E4.45236
G1 X169.794 Y173.471 E4.5063
G1 X169.693 Y173.973 E4.53185
G1 X169.485 Y174.827 E4.5757
G1 X169.283 Y175.528 E4.6121
G1 X169.085 Y176.155 E4.6449
G1 X168.711 Y177.148 E4.69784
G1 X168.325 Y178.044 E4.74651
G1 X167.887 Y178.94 E4.79627
G1 X167.547 Y179.523 E4.82994
G1 X167.065 Y180.285 E4.87493
G1 X166.764 Y180.735 E4.90194
G1 X166.161 Y181.552 E4.9526
G1 X165.527 Y182.272 E5.00046
G1 X164.98 Y182.837 E5.03969
G1 X164.285 Y183.492 E5.08734
G1 X163.589 Y184.051 E5.13187
G1 X163.031 Y184.462 E5.16645
G1 X162.278 Y184.969 E5.21174
G1 X161.351 Y185.484 E5.26464
G1 X160.386 Y185.92 E5.31747
G1 X159.488 Y186.263 E5.36543
G1 X158.484 Y186.549 E5.41752
G1 X157.937 Y186.664 E5.4454
G1 X157.172 Y186.804 E5.4842
G1 X156.174 Y186.94 E5.53445
G1 X155.303 Y186.988 E5.57797
G1 X154.624 Y186.998 E5.61185
G1 X145.432 Y186.999 E6.07044
G1 X144.543 Y186.986 E6.1148
G1 X143.578 Y186.927 E6.16303
G1 X142.351 Y186.732 E6.22502
G1 X141.901 Y186.634 E6.24799
G1 X140.925 Y186.373 E6.2984
G1 X140.449 Y186.22 E6.32334
G1 X139.548 Y185.888 E6.37125
G1 X138.594 Y185.438 E6.42387
G1 X137.667 Y184.907 E6.47717
G1 X136.81 Y184.346 E6.52827
G1 X136.44 Y184.077 E6.55109
G1 X135.504 Y183.316 E6.61128
G1 X134.645 Y182.473 E6.67132
G1 X133.94 Y181.635 E6.72596
G1 X133.481 Y181.029 E6.76389
G1 X133.128 Y180.535 E6.79418
G1 X132.657 Y179.835 E6.83627
G1 X132.123 Y178.957 E6.88754
G1 X131.785 Y178.291 E6.9248
G1 X131.496 Y177.649 E6.95993
G1 X131.33 Y177.254 E6.9813
G1 X131.063 Y176.549 E7.01891
G1 X130.762 Y175.666 E7.06545
G1 X130.466 Y174.642 E7.11863
G1 X130.298 Y173.939 E7.15469
G1 X130.112 Y172.96 E7.20441
G1 X129.948 Y171.773 E7.26419
G1 X129.884 Y171.152 E7.29534
G1 X129.828 Y170.239 E7.34097
G1 X129.792 Y168.479 E7.4288
G1 X129.793 Y131.421 E9.27763
G1 X129.838 Y129.559 E9.37055
G1 X129.898 Y128.662 E9.4154
G1 X129.969 Y128.033 E9.44698
G1 X130.08 Y127.223 E9.48777
G1 X130.184 Y126.622 E9.5182
G1 X130.31 Y125.995 E9.55011
G1 X130.578 Y124.94 E9.60442
G1 X130.827 Y124.128 E9.64679
G1 X131.202 Y123.09 E9.70185
G1 X131.62 Y122.085 E9.75615
G1 X132.046 Y121.183 E9.80592
G1 X132.38 Y120.592 E9.83979
G1 X132.754 Y119.988 E9.87523
G1 X133.1 Y119.463 E9.9066
G1 X133.696 Y118.644 E9.95713
G1 X134.087 Y118.156 E9.98833
G1 X134.684 Y117.473 E10.03359
G0 F6000 X135.136 Y117.868
G1 F1200 X135.858 Y117.175 E10.08352
G1 X136.267 Y116.833 E10.11012
G1 X136.874 Y116.352 E10.14875
G1 X137.679 Y115.773 E10.19823
G1 X138.656 Y115.202 E10.25468
G1 X139.136 Y114.955 E10.28161
G1 X140.034 Y114.545 E10.33086
G1 X140.946 Y114.222 E10.37913
G1 X142.103 Y113.937 E10.43858
G1 X142.844 Y113.8 E10.47618
G1 X143.791 Y113.67 E10.52387
G1 X144.59 Y113.624 E10.5638
G1 X145.869 Y113.601 E10.62761
G1 X154.591 Y113.603 E11.06276
G1 X155.315 Y113.615 E11.09888
G1 X156.689 Y113.726 E11.16766
G1 X157.387 Y113.835 E11.2029
G1 X157.789 Y113.909 E11.22329
G1 X158.738 Y114.13 E11.27191
G1 X160.014 Y114.575 E11.33933
G1 X160.501 Y114.781 E11.36571
G1 X161.367 Y115.196 E11.41362
G1 X162.197 Y115.69 E11.4618
G1 X163.072 Y116.326 E11.51577
G1 X163.867 Y116.969 E11.56678
G1 X164.59 Y117.612 E11.61506
G1 X165.399 Y118.487 E11.67451
G1 X165.902 Y119.117 E11.71473
G1 X166.449 Y119.862 E11.76084
G1 X166.657 Y120.165 E11.77918
G1 X167.164 Y120.977 E11.82694
G1 X167.551 Y121.726 E11.869
G1 X167.927 Y122.534 E11.91346
G1 X168.322 Y123.506 E11.9658
G1 X168.553 Y124.166 E12.00069
G1 X168.808 Y124.961 E12.04234
G1 X169.038 Y125.826 E12.087
G1 X169.204 Y126.628 E12.12786
G1 X169.362 Y127.542 E12.17413
G1 X169.466 Y128.314 E12.213
G1 X169.512 Y128.789 E12.2368
G1 X169.553 Y129.351 E12.26492
G1 X169.6 Y130.527 E12.32363
G1 X169.61 Y131.309 E12.36265
G1 X169.609 Y168.774 E14.23179
G1 X169.59 Y169.703 E14.27815
G1 X169.555 Y170.508 E14.31835
G1 X169.493 Y171.384 E14.36216
G1 X169.383 Y172.305 E14.40843
G1 X169.206 Y173.353 E14.46146
G1 X169.11 Y173.831 E14.48578
G1 X168.902 Y174.685 E14.52964
G1 X168.711 Y175.347 E14.56401
G1 X168.513 Y175.974 E14.59681
G1 X168.16 Y176.911 E14.64677
G1 X167.785 Y177.781 E14.69403
G1 X167.368 Y178.638 E14.74158
G1 X167.04 Y179.202 E14.77413
G1 X166.566 Y179.952 E14.8184
G1 X166.28 Y180.38 E14.84408
G1 X165.711 Y181.155 E14.89204
G1 X165.077 Y181.875 E14.93991
G1 X164.568 Y182.401 E14.97642
G1 X163.909 Y183.024 E15.02167
G1 X163.232 Y183.568 E15.065
G1 X162.696 Y183.964 E15.09824
G1 X161.943 Y184.471 E15.14353
G1 X161.061 Y184.959 E15.19382
G1 X160.172 Y185.359 E15.24246
G1 X159.274 Y185.702 E15.29042
G1 X158.36 Y185.962 E15.33783
G1 X157.828 Y186.074 E15.36495
G1 X157.09 Y186.21 E15.40239
G1 X156.141 Y186.341 E15.45018
G1 X155.294 Y186.388 E15.4925
G1 X154.624 Y186.398 E15.52593
G1 X145.44 Y186.399 E15.98413
G1 X144.578 Y186.387 E16.02714
G1 X143.672 Y186.334 E16.07241
G1 X142.445 Y186.139 E16.1344
G1 X142.056 Y186.054 E16.15426
G1 X141.107 Y185.801 E16.20326
G1 X140.656 Y185.657 E16.22688
G1 X139.755 Y185.325 E16.27479
G1 X138.892 Y184.917 E16.32241
G1 X137.996 Y184.405 E16.3739
G1 X137.139 Y183.844 E16.425
G1 X136.819 Y183.611 E16.44475
G1 X135.883 Y182.85 E16.50493
G1 X135.104 Y182.086 E16.55937
G1 X134.418 Y181.272 E16.61248
G1 X133.969 Y180.68 E16.64954
G1 X133.626 Y180.2 E16.67898
G1 X133.155 Y179.5 E16.72107
G1 X132.658 Y178.685 E16.7687
G1 X132.332 Y178.044 E16.80457
G1 X132.049 Y177.417 E16.83889
G1 X131.891 Y177.041 E16.85924
G1 X131.631 Y176.355 E16.89584
G1 X131.33 Y175.472 E16.94238
G1 X131.049 Y174.502 E16.99277
G1 X130.887 Y173.826 E17.02745
G1 X130.706 Y172.878 E17.0756
G1 X130.545 Y171.711 E17.13437
G1 X130.483 Y171.115 E17.16427
G1 X130.428 Y170.227 E17.20865
G1 X130.392 Y168.479 E17.29588
G1 X130.393 Y131.435 E19.14401
G1 X130.437 Y129.599 E19.23564
G1 X130.497 Y128.702 E19.28049
G1 X130.563 Y128.114 E19.31001
G1 X130.671 Y127.325 E19.34974
G1 X130.772 Y126.74 E19.37936
G1 X130.892 Y126.142 E19.40979
G1 X131.152 Y125.116 E19.46259
G1 X131.401 Y124.304 E19.50496
G1 X131.756 Y123.32 E19.55715
G1 X132.163 Y122.34 E19.61009
G1 X132.568 Y121.478 E19.65761
G1 X132.89 Y120.908 E19.69027
G1 X133.255 Y120.318 E19.72488
G1 X133.585 Y119.816 E19.75485
G1 X134.164 Y119.019 E19.804
G1 X134.539 Y118.551 E19.83392
G1 X135.136 Y117.868 E19.87918
G0 F6000 X135.588 Y118.263
G1 F1200 X136.243 Y117.635 E19.92445
G1 X136.64 Y117.303 E19.95027
G1 X137.247 Y116.822 E19.98891
G1 X137.982 Y116.291 E20.03415
G1 X138.931 Y115.736 E20.08899
G1 X139.411 Y115.489 E20.11593
G1 X140.236 Y115.11 E20.16122
G1 X141.09 Y114.805 E20.20646
G1 X142.247 Y114.52 E20.26591
G1 X142.927 Y114.394 E20.30041
G1 X143.826 Y114.269 E20.3457
G1 X144.601 Y114.224 E20.38443
G1 X145.869 Y114.201 E20.4477
G1 X154.582 Y114.203 E20.88239
G1 X155.267 Y114.213 E20.91657
G1 X156.597 Y114.319 E20.98313
G1 X157.279 Y114.425 E21.01757
G1 X157.655 Y114.494 E21.03664
G1 X158.54 Y114.697 E21.08194
G1 X159.816 Y115.142 E21.14936
G1 X160.243 Y115.323 E21.1725
G1 X161.062 Y115.713 E21.21775
G1 X161.844 Y116.175 E21.26307
G1 X162.695 Y116.793 E21.31554
G1 X163.47 Y117.419 E21.36524
G1 X164.15 Y118.02 E21.41052
G1 X164.93 Y118.862 E21.46778
G1 X165.418 Y119.472 E21.50675
G1 X165.955 Y120.203 E21.55201
G1 X166.149 Y120.484 E21.56904
G1 X166.631 Y121.253 E21.61432
G1 X167.007 Y121.98 E21.65515
G1 X167.371 Y122.76 E21.6981
G1 X167.756 Y123.705 E21.74901
G1 X167.982 Y124.349 E21.78306
G1 X168.228 Y125.116 E21.82324
G1 X168.45 Y125.948 E21.8662
G1 X168.616 Y126.75 E21.90706
G1 X168.767 Y127.623 E21.95126
G1 X168.869 Y128.373 E21.98903
G1 X168.914 Y128.832 E22.01204
G1 X168.953 Y129.375 E22.0392
G1 X169 Y130.535 E22.09712
G1 X169.01 Y131.309 E22.13573
G1 X169.009 Y168.762 E24.00427
G1 X168.991 Y169.676 E24.04988
G1 X168.956 Y170.466 E24.08933
G1 X168.897 Y171.313 E24.13169
G1 X168.791 Y172.205 E24.17651
G1 X168.614 Y173.253 E24.22953
G1 X168.527 Y173.689 E24.25171
G1 X168.325 Y174.519 E24.29433
G1 X168.139 Y175.166 E24.32792
G1 X167.941 Y175.793 E24.36072
G1 X167.609 Y176.674 E24.40769
G1 X167.245 Y177.519 E24.45359
G1 X166.849 Y178.336 E24.49889
G1 X166.521 Y178.9 E24.53144
G1 X166.067 Y179.619 E24.57386
G1 X165.796 Y180.026 E24.59826
G1 X165.261 Y180.758 E24.64349
G1 X164.627 Y181.478 E24.69136
G1 X164.156 Y181.965 E24.72516
G1 X163.497 Y182.588 E24.7704
G1 X162.875 Y183.086 E24.81015
G1 X162.361 Y183.466 E24.84204
G1 X161.608 Y183.973 E24.88733
G1 X160.814 Y184.412 E24.9326
G1 X159.956 Y184.799 E24.97955
G1 X159.109 Y185.125 E25.02483
G1 X158.236 Y185.375 E25.07014
G1 X157.719 Y185.484 E25.0965
G1 X157.007 Y185.616 E25.13263
G1 X156.108 Y185.742 E25.17792
G1 X155.285 Y185.788 E25.21904
G1 X154.624 Y185.798 E25.25202
G1 X145.448 Y185.799 E25.70981
G1 X144.613 Y185.788 E25.75148
G1 X143.707 Y185.735 E25.79675
G1 X142.573 Y185.553 E25.85405
G1 X142.21 Y185.474 E25.87259
G1 X141.288 Y185.229 E25.92018
G1 X140.862 Y185.094 E25.94248
G1 X140.01 Y184.782 E25.98774
G1 X139.189 Y184.396 E26.033
G1 X138.325 Y183.903 E26.08263
G1 X137.468 Y183.342 E26.13374
G1 X137.196 Y183.144 E26.15052
G1 X136.302 Y182.421 E26.20788
G1 X135.563 Y181.699 E26.25943
G1 X134.877 Y180.885 E26.31254
G1 X134.457 Y180.331 E26.34722
G1 X134.124 Y179.865 E26.37579
G1 X133.667 Y179.187 E26.41659
G1 X133.193 Y178.413 E26.46187
G1 X132.879 Y177.797 E26.49636
G1 X132.602 Y177.185 E26.52988
G1 X132.452 Y176.828 E26.5492
G1 X132.199 Y176.161 E26.58479
G1 X131.898 Y175.278 E26.63133
G1 X131.632 Y174.362 E26.67892
G1 X131.476 Y173.713 E26.71222
G1 X131.295 Y172.765 E26.76037
G1 X131.142 Y171.648 E26.81661
G1 X131.082 Y171.077 E26.84526
G1 X131.028 Y170.215 E26.88835
G1 X130.992 Y168.479 E26.97498
G1 X130.993 Y131.449 E28.82241
G1 X131.036 Y129.639 E28.91274
G1 X131.096 Y128.742 E28.95759
G1 X131.157 Y128.195 E28.98505
G1 X131.262 Y127.427 E29.02372
G1 X131.36 Y126.858 E29.05252
G1 X131.474 Y126.289 E29.08148
G1 X131.726 Y125.292 E29.13278
G1 X131.975 Y124.48 E29.17515
G1 X132.31 Y123.55 E29.22447
G1 X132.707 Y122.594 E29.27611
G1 X133.091 Y121.772 E29.32138
G1 X133.4 Y121.223 E29.35281
G1 X133.756 Y120.647 E29.38659
G1 X134.07 Y120.169 E29.41512
G1 X134.633 Y119.394 E29.46291
G1 X134.991 Y118.946 E29.49152
G1 X135.588 Y118.263 E29.53678
G1 F2700 E24.53678
;MESH:Fantabulous Snicket-2.stl
EXCLUDE_OBJECT_START NAME=Fantabulous_Snicket_2_stl
G0 F6000 X140.879 Y130.622
G0 X157.556 Y169.273
;TYPE:WALL-INNER
G1 F2700 E29.53678
G1 F1200 X157.556 Y130.621 E31.46514
G1 X157.489 Y129.578 E31.51728
G1 X157.294 Y128.558 E31.56909
G1 X157.062 Y127.85 E31.60626
G1 X156.78 Y127.205 E31.64138
G1 X156.63 Y126.948 E31.65623
G1 X156.172 Y126.367 E31.69314
G1 X155.706 Y126.005 E31.72258
G1 X155.432 Y125.894 E31.73732
G1 X155.062 Y125.836 E31.75601
G1 X144.946 Y125.833 E32.2607
G1 X144.446 Y125.924 E32.28605
G1 X144.294 Y125.996 E32.29444
G1 X143.833 Y126.356 E32.32363
G1 X143.519 Y126.73 E32.34799
G1 X143.193 Y127.255 E32.37882
G1 X142.927 Y127.871 E32.4123
G1 X142.694 Y128.584 E32.44972
G1 X142.592 Y129.055 E32.47376
G1 X142.482 Y129.898 E32.51618
G1 X142.441 Y130.715 E32.55699
G1 X142.44 Y169.281 E34.48105
G1 X142.482 Y170.102 E34.52207
G1 X142.592 Y170.941 E34.56428
G1 X142.694 Y171.412 E34.58833
G1 X142.927 Y172.128 E34.62589
G1 X143.193 Y172.738 E34.65909
G1 X143.564 Y173.318 E34.69344
G1 X143.847 Y173.647 E34.71509
G1 X144.397 Y174.032 E34.74859
G1 X144.927 Y174.16 E34.77579
G1 X155.062 Y174.163 E35.28143
G1 X155.429 Y174.106 E35.29995
G1 X155.718 Y173.989 E35.31551
G1 X156.037 Y173.752 E35.33534
G1 X156.384 Y173.396 E35.36014
G1 X156.81 Y172.735 E35.39937
G1 X157.083 Y172.101 E35.43381
G1 X157.301 Y171.413 E35.46982
G1 X157.488 Y170.402 E35.52111
G1 X157.556 Y169.273 E35.57754
G0 F6000 X158.156 Y169.291
;TYPE:WALL-OUTER
G1 F1200 X158.156 Y130.602 E37.50774
G1 X158.085 Y129.502 E37.56273
G1 X157.876 Y128.408 E37.6183
G1 X157.623 Y127.636 E37.65883
G1 X157.316 Y126.933 E37.6971
G1 X157.127 Y126.61 E37.71577
G1 X156.598 Y125.939 E37.7584
G1 X156.008 Y125.479 E37.79573
G1 X155.592 Y125.312 E37.81809
G1 X155.108 Y125.236 E37.84253
G1 X144.892 Y125.233 E38.35221
G1 X144.261 Y125.348 E38.38421
G1 X143.978 Y125.482 E38.39983
G1 X143.414 Y125.922 E38.43552
G1 X143.032 Y126.377 E38.46516
G1 X142.659 Y126.976 E38.50036
G1 X142.365 Y127.659 E38.53746
G1 X142.114 Y128.427 E38.57777
G1 X142 Y128.952 E38.60458
G1 X141.884 Y129.844 E38.64945
G1 X141.841 Y130.7 E38.69221
G1 X141.84 Y169.296 E40.61777
G1 X141.884 Y170.156 E40.66074
G1 X142 Y171.044 E40.70541
G1 X142.114 Y171.569 E40.73222
G1 X142.365 Y172.341 E40.77272
G1 X142.662 Y173.022 E40.80978
G1 X143.084 Y173.682 E40.84887
G1 X143.349 Y173.981 E40.8688
G1 X143.419 Y174.079 E40.87481
G1 X144.146 Y174.589 E40.91911
G1 X144.856 Y174.76 E40.95555
G1 X155.108 Y174.763 E41.46702
G1 X155.591 Y174.688 E41.49141
G1 X156.015 Y174.516 E41.51423
G1 X156.433 Y174.205 E41.54023
G1 X156.856 Y173.772 E41.57043
G1 X157.342 Y173.018 E41.61518
G1 X157.646 Y172.311 E41.65358
G1 X157.884 Y171.559 E41.69293
G1 X158.085 Y170.475 E41.74793
G1 X158.156 Y169.291 E41.80711
G0 F6000 X157.354 Y169.285
G0 X157.016 Y169.238
;TYPE:SKIN
G1 F1200 X156.949 Y170.339 E41.86214
G1 X156.772 Y171.29 E41.9104
G1 X156.582 Y171.887 E41.94166
G1 X156.326 Y172.486 E41.97415
G1 X155.959 Y173.056 E42.00798
G1 X155.686 Y173.336 E42.02749
G1 X155.376 Y173.565 E42.04671
G1 X155.021 Y173.62 E42.06464
G1 X144.988 Y173.62 E42.56519
G1 X144.619 Y173.53 E42.58413
G1 X144.219 Y173.247 E42.60858
G1 X144.006 Y173.003 E42.62474
G1 X143.67 Y172.474 E42.656
G1 X143.433 Y171.94 E42.68515
G1 X143.211 Y171.258 E42.72093
G1 X143.128 Y170.861 E42.74117
G1 X143.02 Y170.056 E42.78169
G1 X142.98 Y169.252 E42.82185
G1 X142.98 Y130.74 E44.74322
G1 X143.02 Y129.935 E44.78343
G1 X143.124 Y129.136 E44.82363
G1 X143.21 Y128.739 E44.8439
G1 X143.433 Y128.059 E44.8796
G1 X143.675 Y127.496 E44.91017
G1 X143.952 Y127.053 E44.93624
G1 X144.21 Y126.746 E44.95625
G1 X144.595 Y126.446 E44.9806
G1 X144.996 Y126.373 E45.00093
G1 X155.016 Y126.376 E45.50083
G1 X155.375 Y126.433 E45.51897
G1 X155.786 Y126.755 E45.54502
G1 X156.247 Y127.335 E45.58198
