;FLAVOR:Marlin
;TIME:1876
;Filament used: 0.715113m
;Layer height: 0.2
;MINX:130.301
;MINY:115.911
;MINZ:0.2
;MAXX:173.19
;MAXY:183.321
;MAXZ:13.6
;TARGET_MACHINE.NAME:Creality CR-10
;POSTPROCESSED
;  [CreateThumbnail]
;  [CreateThumbnail]
;Generated with Cura_SteamEngine 5.7.0
;
;

;
;



; Pre-Processed for Cancel-Object support by preprocess_cancellation v0.2.0
; 1 known objects
EXCLUDE_OBJECT_DEFINE NAME=H2_20V2S_20Fan_20Mount_20Bracket_STL CENTER=151.015,151.346 POLYGON=[[131.101,116.711],[131.101,182.521],[172.39,182.521],[172.39,116.711]]
M82 ;absolute extrusion mode
start_print BED_TEMP=60 EXTRUDER_TEMP=205.0 MATERIAL='PLA'
G92 E0
G92 E0
G1 F2700 E-5
;LAYER_COUNT:68
;LAYER:0
M107
G0 F6000 X136.589 Y119.833 Z0.2
;TYPE:SKIRT
G1 F2700 E0
G1 F1200 X137.258 Y119.124 E0.03242
G1 X137.986 Y118.479 E0.06477
G1 X138.769 Y117.899 E0.09718
G1 X139.6 Y117.392 E0.12956
G1 X140.485 Y116.954 E0.1624
G1 X141.626 Y116.526 E0.20293
G1 X142.068 Y116.39 E0.21831
G1 X143.011 Y116.148 E0.25069
G1 X143.943 Y115.993 E0.28212
G1 X145.293 Y115.911 E0.3271
G1 X147.395 Y115.914 E0.39702
G1 X155.02 Y115.956 E0.65063
G1 X155.922 Y116.001 E0.68067
G1 X156.965 Y116.148 E0.7157
G1 X158.028 Y116.404 E0.75207
G1 X158.475 Y116.537 E0.76758
G1 X159.362 Y116.846 E0.79882
G1 X160.281 Y117.263 E0.83238
G1 X161.129 Y117.742 E0.86478
G1 X161.93 Y118.294 E0.89713
G1 X162.659 Y118.896 E0.92858
G1 X163.629 Y119.887 E0.9747
G1 X163.928 Y120.235 E0.98996
G1 X164.506 Y120.975 E1.02119
G1 X165.054 Y121.823 E1.05477
G1 X165.508 Y122.685 E1.08717
G1 X165.87 Y123.55 E1.11836
G1 X166.186 Y124.54 E1.15293
G1 X166.305 Y124.99 E1.16841
G1 X166.498 Y125.872 E1.19844
G1 X166.641 Y127.05 E1.23791
G1 X166.744 Y128.596 E1.28944
G1 X166.968 Y131.175 E1.37554
G1 X167.257 Y133.68 E1.45941
G1 X167.613 Y136.156 E1.54261
G1 X168.046 Y138.658 E1.62706
G1 X168.572 Y141.264 E1.71549
G1 X168.763 Y142.672 E1.76275
G1 X168.89 Y144.491 E1.82339
G1 X169.115 Y147.005 E1.90734
G1 X169.412 Y149.52 E1.99157
G1 X169.781 Y152.04 E2.07628
G1 X170.21 Y154.485 E2.15885
G1 X170.715 Y156.953 E2.24263
G1 X171.285 Y159.378 E2.32549
G1 X171.948 Y161.882 E2.41164
G1 X172.605 Y164.147 E2.49008
G1 X172.803 Y164.871 E2.51504
G1 X173.016 Y165.821 E2.54743
G1 X173.147 Y166.787 E2.57985
G1 X173.19 Y167.759 E2.61221
G1 X173.147 Y168.732 E2.6446
G1 X173.03 Y169.628 E2.67466
G1 X172.861 Y170.428 E2.70185
G1 X172.683 Y171.11 E2.7253
G1 X172.296 Y172.459 E2.77197
G1 X171.984 Y173.381 E2.80435
G1 X171.591 Y174.272 E2.83674
G1 X171.122 Y175.124 E2.86909
G1 X170.62 Y175.875 E2.89913
G1 X169.973 Y176.678 E2.93343
G1 X169.606 Y177.073 E2.95136
G1 X168.906 Y177.792 E2.98474
G1 X168.195 Y178.486 E3.01778
G1 X167.52 Y179.086 E3.04782
G1 X166.68 Y179.708 E3.08259
G1 X165.848 Y180.215 E3.11499
G1 X164.999 Y180.633 E3.14647
G1 X163.7 Y181.112 E3.19251
G1 X162.766 Y181.389 E3.22492
G1 X161.974 Y181.61 E3.25227
G1 X158.806 Y182.557 E3.36224
G1 X158.022 Y182.805 E3.38959
G1 X157.081 Y183.057 E3.42199
G1 X156.115 Y183.224 E3.4546
G1 X154.988 Y183.31 E3.49219
G1 X154.345 Y183.321 E3.51358
G1 X145.725 Y183.28 E3.80028
G1 X144.835 Y183.263 E3.82989
G1 X143.864 Y183.199 E3.86226
G1 X142.901 Y183.05 E3.89467
G1 X141.956 Y182.816 E3.92705
G1 X141.035 Y182.499 E3.95944
G1 X140.146 Y182.102 E3.99183
G1 X139.296 Y181.629 E4.02418
G1 X138.547 Y181.124 E4.05423
G1 X137.736 Y180.463 E4.08902
G1 X137.039 Y179.782 E4.12143
G1 X136.407 Y179.043 E4.15378
G1 X135.841 Y178.25 E4.18618
G1 X135.348 Y177.41 E4.21858
G1 X134.931 Y176.531 E4.25093
G1 X134.616 Y175.685 E4.28096
G1 X134.412 Y174.988 E4.30511
G1 X134.096 Y173.748 E4.34768
G1 X133.41 Y171.225 E4.43464
G1 X132.688 Y168.835 E4.51768
G1 X131.439 Y165.141 E4.64737
G1 X131.29 Y164.663 E4.66403
G1 X130.933 Y163.413 E4.70726
G1 X130.705 Y162.448 E4.74024
G1 X130.574 Y161.555 E4.77026
G1 X130.514 Y160.51 E4.80508
G1 X130.548 Y159.518 E4.83809
G1 X130.752 Y157.016 E4.92158
G1 X130.883 Y154.549 E5.00375
G1 X130.948 Y151.988 E5.08896
G1 X130.939 Y149.47 E5.17271
G1 X130.861 Y146.969 E5.25593
G1 X130.708 Y144.415 E5.34103
G1 X130.589 Y142.986 E5.38872
G1 X130.351 Y140.55 E5.47013
G1 X130.301 Y139.577 E5.50254
G1 X130.338 Y138.606 E5.53485
G1 X130.448 Y137.709 E5.56491
G1 X130.704 Y136.552 E5.60433
G1 X131.046 Y135.34 E5.64621
G1 X131.476 Y133.934 E5.69511
G1 X131.91 Y132.587 E5.74218
G1 X132.623 Y130.146 E5.82676
G1 X133.244 Y127.765 E5.9086
G1 X133.589 Y126.267 E5.95973
G1 X133.988 Y124.648 E6.01519
G1 X134.255 Y123.747 E6.04645
G1 X134.626 Y122.81 E6.07997
G1 X135.064 Y121.94 E6.11236
G1 X135.537 Y121.171 E6.14239
G1 X136.31 Y120.157 E6.1848
G1 X136.589 Y119.833 E6.19902
G0 F6000 X136.88 Y120.107
G1 F1200 X137.524 Y119.423 E6.23027
G1 X138.225 Y118.8 E6.26146
G1 X138.978 Y118.24 E6.29267
G1 X139.778 Y117.75 E6.32387
G1 X140.625 Y117.329 E6.35533
G1 X141.766 Y116.901 E6.39586
G1 X142.168 Y116.777 E6.40986
G1 X143.077 Y116.543 E6.44107
G1 X144.009 Y116.388 E6.4725
G1 X145.292 Y116.311 E6.51525
G1 X147.393 Y116.314 E6.58513
G1 X155 Y116.356 E6.83814
G1 X155.902 Y116.401 E6.86818
G1 X156.871 Y116.537 E6.90072
G1 X157.934 Y116.793 E6.93709
G1 X158.343 Y116.915 E6.95129
G1 X159.23 Y117.224 E6.98253
G1 X160.085 Y117.611 E7.01374
G1 X160.903 Y118.072 E7.04497
G1 X161.676 Y118.603 E7.07616
G1 X162.373 Y119.176 E7.10617
G1 X163.343 Y120.167 E7.1523
G1 X163.613 Y120.482 E7.1661
G1 X164.17 Y121.193 E7.19614
G1 X164.7 Y122.01 E7.22853
G1 X165.139 Y122.84 E7.25976
G1 X165.489 Y123.672 E7.28978
G1 X165.799 Y124.642 E7.32365
G1 X165.914 Y125.076 E7.33858
G1 X166.107 Y125.958 E7.36861
G1 X166.242 Y127.077 E7.4061
G1 X166.346 Y128.631 E7.4579
G1 X166.571 Y131.221 E7.54437
G1 X166.861 Y133.737 E7.6286
G1 X167.219 Y136.224 E7.71218
G1 X167.654 Y138.737 E7.797
G1 X168.18 Y141.343 E7.88542
G1 X168.364 Y142.7 E7.93097
G1 X168.492 Y144.527 E7.99189
G1 X168.718 Y147.052 E8.0762
G1 X169.016 Y149.578 E8.1608
G1 X169.387 Y152.109 E8.24588
G1 X169.818 Y154.565 E8.32882
G1 X170.323 Y157.033 E8.41261
G1 X170.898 Y159.48 E8.49621
G1 X171.561 Y161.984 E8.58236
G1 X172.219 Y164.253 E8.66094
G1 X172.413 Y164.959 E8.68529
G1 X172.62 Y165.875 E8.71653
G1 X172.747 Y166.805 E8.74775
G1 X172.79 Y167.742 E8.77894
G1 X172.75 Y168.68 E8.81017
G1 X172.633 Y169.576 E8.84022
G1 X172.474 Y170.327 E8.86576
G1 X172.299 Y171 E8.88888
G1 X171.917 Y172.331 E8.93494
G1 X171.618 Y173.22 E8.96614
G1 X171.24 Y174.08 E8.99738
G1 X170.789 Y174.902 E9.02857
G1 X170.287 Y175.653 E9.05861
G1 X169.68 Y176.406 E9.09078
G1 X169.32 Y176.794 E9.10838
G1 X168.626 Y177.506 E9.14145
G1 X167.929 Y178.187 E9.17386
G1 X167.254 Y178.787 E9.2039
G1 X166.472 Y179.367 E9.23628
G1 X165.671 Y179.856 E9.2675
G1 X164.822 Y180.274 E9.29897
G1 X163.586 Y180.729 E9.34278
G1 X162.659 Y181.004 E9.37494
G1 X161.859 Y181.227 E9.40256
G1 X158.691 Y182.174 E9.51254
G1 X157.918 Y182.419 E9.53951
G1 X157.012 Y182.663 E9.57071
G1 X156.084 Y182.825 E9.60205
G1 X154.981 Y182.91 E9.63884
G1 X154.347 Y182.921 E9.65993
G1 X145.732 Y182.88 E9.94647
G1 X144.861 Y182.864 E9.97545
G1 X143.925 Y182.804 E10.00664
G1 X142.997 Y182.662 E10.03787
G1 X142.086 Y182.438 E10.06907
G1 X141.198 Y182.134 E10.10029
G1 X140.34 Y181.752 E10.13152
G1 X139.52 Y181.297 E10.16271
G1 X138.771 Y180.792 E10.19276
G1 X138.015 Y180.177 E10.22517
G1 X137.343 Y179.522 E10.25638
G1 X136.732 Y178.81 E10.28759
G1 X136.186 Y178.047 E10.3188
G1 X135.709 Y177.238 E10.35003
G1 X135.306 Y176.391 E10.38123
G1 X134.991 Y175.545 E10.41125
G1 X134.8 Y174.889 E10.43398
G1 X134.484 Y173.649 E10.47654
G1 X133.796 Y171.12 E10.56371
G1 X133.071 Y168.719 E10.64713
G1 X131.821 Y165.022 E10.77693
G1 X131.675 Y164.553 E10.79327
G1 X131.318 Y163.303 E10.83651
G1 X131.101 Y162.39 E10.86772
G1 X130.97 Y161.497 E10.89774
G1 X130.914 Y160.524 E10.93015
G1 X130.947 Y159.55 E10.96257
G1 X131.15 Y157.048 E11.04606
G1 X131.283 Y154.559 E11.12896
G1 X131.348 Y151.998 E11.21417
G1 X131.339 Y149.469 E11.29828
G1 X131.261 Y146.957 E11.38187
G1 X131.107 Y144.382 E11.46767
G1 X130.988 Y142.953 E11.51536
G1 X130.75 Y140.529 E11.59637
G1 X130.701 Y139.592 E11.62758
G1 X130.735 Y138.655 E11.65877
G1 X130.845 Y137.758 E11.68882
G1 X131.089 Y136.66 E11.72624
G1 X131.428 Y135.457 E11.76781
G1 X131.857 Y134.057 E11.81651
G1 X132.291 Y132.71 E11.86358
G1 X133.007 Y130.258 E11.94854
G1 X133.631 Y127.866 E12.03076
G1 X133.977 Y126.363 E12.08205
G1 X134.372 Y124.762 E12.1369
G1 X134.639 Y123.861 E12.16816
G1 X134.984 Y122.989 E12.19935
G1 X135.405 Y122.15 E12.23057
G1 X135.878 Y121.381 E12.2606
G1 X136.614 Y120.417 E12.30093
G1 X136.88 Y120.107 E12.31452
G0 F6000 X137.172 Y120.381
G1 F1200 X137.79 Y119.722 E12.34457
G1 X138.464 Y119.121 E12.3746
G1 X139.188 Y118.581 E12.40465
G1 X139.957 Y118.108 E12.43467
G1 X140.765 Y117.704 E12.46472
G1 X141.906 Y117.276 E12.50525
G1 X142.269 Y117.164 E12.51789
G1 X143.143 Y116.937 E12.54792
G1 X144.033 Y116.787 E12.57794
G1 X145.291 Y116.711 E12.61986
G1 X147.391 Y116.714 E12.6897
G1 X154.98 Y116.756 E12.94212
G1 X155.882 Y116.801 E12.97216
G1 X156.777 Y116.926 E13.00221
G1 X157.84 Y117.182 E13.03858
G1 X158.212 Y117.293 E13.05149
G1 X159.066 Y117.589 E13.08155
G1 X159.889 Y117.96 E13.11158
G1 X160.677 Y118.402 E13.14163
G1 X161.422 Y118.912 E13.17166
G1 X162.119 Y119.485 E13.20167
G1 X163.039 Y120.427 E13.24546
G1 X163.298 Y120.729 E13.2587
G1 X163.855 Y121.44 E13.28874
G1 X164.347 Y122.197 E13.31876
G1 X164.77 Y122.995 E13.3488
G1 X165.12 Y123.827 E13.37883
G1 X165.412 Y124.745 E13.41087
G1 X165.523 Y125.162 E13.42522
G1 X165.716 Y126.044 E13.45525
G1 X165.843 Y127.104 E13.49076
G1 X165.948 Y128.666 E13.54283
G1 X166.174 Y131.267 E13.62966
G1 X166.465 Y133.794 E13.71426
G1 X166.825 Y136.292 E13.79821
G1 X167.262 Y138.816 E13.8834
G1 X167.788 Y141.422 E13.97183
G1 X167.965 Y142.728 E14.01566
G1 X168.094 Y144.563 E14.07685
G1 X168.321 Y147.099 E14.16153
G1 X168.62 Y149.636 E14.2465
G1 X168.993 Y152.178 E14.33195
G1 X169.426 Y154.645 E14.41526
G1 X169.931 Y157.113 E14.49904
G1 X170.511 Y159.582 E14.5834
G1 X171.174 Y162.086 E14.66955
G1 X171.833 Y164.359 E14.74826
G1 X172.023 Y165.048 E14.77204
G1 X172.224 Y165.929 E14.80209
G1 X172.347 Y166.824 E14.83214
G1 X172.39 Y167.726 E14.86217
G1 X172.353 Y168.628 E14.8922
G1 X172.236 Y169.524 E14.92225
G1 X172.087 Y170.227 E14.94615
G1 X171.915 Y170.89 E14.96894
G1 X171.538 Y172.204 E15.0144
G1 X171.251 Y173.06 E15.04443
G1 X170.889 Y173.888 E15.07449
G1 X170.456 Y174.68 E15.10451
G1 X169.954 Y175.431 E15.13455
G1 X169.387 Y176.134 E15.16459
G1 X169.034 Y176.515 E15.18187
G1 X168.346 Y177.22 E15.21463
G1 X167.663 Y177.888 E15.24641
G1 X166.988 Y178.488 E15.27645
G1 X166.263 Y179.026 E15.30647
G1 X165.493 Y179.498 E15.33651
G1 X164.684 Y179.899 E15.36654
G1 X163.472 Y180.346 E15.40951
G1 X162.552 Y180.619 E15.44143
G1 X161.744 Y180.844 E15.46932
G1 X158.576 Y181.791 E15.5793
G1 X157.814 Y182.033 E15.60589
G1 X156.942 Y182.269 E15.63594
G1 X156.053 Y182.426 E15.66596
G1 X154.974 Y182.51 E15.70196
G1 X154.349 Y182.521 E15.72275
G1 X145.739 Y182.48 E16.00912
G1 X144.886 Y182.465 E16.0375
G1 X143.985 Y182.409 E16.06752
G1 X143.092 Y182.273 E16.09757
G1 X142.215 Y182.059 E16.12759
G1 X141.36 Y181.768 E16.15763
G1 X140.534 Y181.402 E16.18768
G1 X139.744 Y180.965 E16.21771
G1 X138.995 Y180.46 E16.24775
G1 X138.294 Y179.89 E16.2778
G1 X137.646 Y179.261 E16.30784
G1 X137.057 Y178.577 E16.33786
G1 X136.53 Y177.843 E16.36792
G1 X136.07 Y177.066 E16.39795
G1 X135.681 Y176.251 E16.42799
G1 X135.366 Y175.405 E16.45801
G1 X135.188 Y174.79 E16.4793
G1 X134.872 Y173.55 E16.52187
G1 X134.182 Y171.015 E16.60925
G1 X133.454 Y168.603 E16.69305
G1 X132.203 Y164.903 E16.82295
G1 X132.06 Y164.443 E16.83897
G1 X131.707 Y163.21 E16.88163
G1 X131.497 Y162.332 E16.91166
G1 X131.366 Y161.439 E16.94168
G1 X131.314 Y160.537 E16.97173
G1 X131.346 Y159.582 E17.00351
G1 X131.548 Y157.08 E17.087
G1 X131.683 Y154.569 E17.17063
G1 X131.748 Y152.008 E17.25584
G1 X131.739 Y149.468 E17.34032
G1 X131.661 Y146.945 E17.42428
G1 X131.506 Y144.349 E17.51077
G1 X131.387 Y142.92 E17.55847
G1 X131.149 Y140.508 E17.63908
G1 X131.101 Y139.606 E17.66912
G1 X131.132 Y138.704 E17.69914
G1 X131.242 Y137.807 E17.7292
G1 X131.474 Y136.768 E17.76461
G1 X131.81 Y135.574 E17.80586
G1 X132.238 Y134.18 E17.85436
G1 X132.672 Y132.833 E17.90143
G1 X133.391 Y130.37 E17.98677
G1 X134.018 Y127.967 E18.06937
G1 X134.365 Y126.459 E18.12084
G1 X134.756 Y124.875 E18.1751
G1 X135.011 Y124.008 E18.20516
G1 X135.342 Y123.168 E18.23519
G1 X135.746 Y122.36 E18.26524
G1 X136.219 Y121.591 E18.29526
G1 X136.918 Y120.677 E18.33354
G1 X137.172 Y120.381 E18.34651
G1 F2700 E13.34651
G0 F6000 X145.021 Y127.189
G1 F2700 E18.34651
G1 F1200 X145.276 Y127.11 E18.35539
G1 X145.536 Y127.189 E18.36443
G1 X145.625 Y127.294 E18.369
G1 X145.731 Y127.36 E18.37316
G1 X145.855 Y127.349 E18.3773
G1 X145.93 Y127.294 E18.38039
G1 X146.015 Y127.194 E18.38476
G1 X146.271 Y127.115 E18.39367
G1 X146.524 Y127.193 E18.40247
G1 X146.719 Y127.42 E18.41243
G1 X146.805 Y127.747 E18.42367
G1 X146.721 Y128.046 E18.434
G1 X146.46 Y128.304 E18.44621
G1 X146.273 Y128.364 E18.45274
G1 X146.087 Y128.302 E18.45926
G1 X145.919 Y128.132 E18.46721
G1 X145.808 Y128.075 E18.47136
G1 X145.637 Y128.13 E18.47733
G1 X145.468 Y128.295 E18.48519
G1 X145.28 Y128.355 E18.49175
G1 X145.098 Y128.295 E18.49813
G1 X144.826 Y128.022 E18.51094
G1 X144.742 Y127.738 E18.5208
G1 X144.829 Y127.413 E18.53199
G1 X145.021 Y127.189 E18.5418
G0 F6000 X145.25 Y127.537
G1 F1200 X145.277 Y127.528 E18.54274
G1 X145.307 Y127.537 E18.54379
G1 X145.32 Y127.553 E18.54447
G1 X145.489 Y127.691 E18.55173
G1 X145.569 Y127.717 E18.55453
G1 X145.358 Y127.843 E18.5627
G1 X145.284 Y127.915 E18.56613
G1 X145.18 Y127.81 E18.57105
G1 X145.157 Y127.733 E18.57372
G1 X145.192 Y127.605 E18.57814
G1 X145.25 Y127.537 E18.58111
G0 F6000 X145.987 Y127.717
G1 F1200 X146.114 Y127.662 E18.58571
G1 X146.235 Y127.553 E18.59113
G1 X146.244 Y127.542 E18.5916
G1 X146.272 Y127.534 E18.59257
G1 X146.296 Y127.541 E18.5934
G1 X146.355 Y127.61 E18.59642
G1 X146.39 Y127.743 E18.601
G1 X146.364 Y127.837 E18.60424
G1 X146.276 Y127.924 E18.60836
G1 X146.203 Y127.851 E18.61179
G1 X146.024 Y127.726 E18.61905
G1 X145.987 Y127.717 E18.62032
G0 F6000 X147.467 Y127.753
G1 F1200 X147.554 Y127.429 E18.63147
G1 X147.748 Y127.202 E18.64141
G1 X148.004 Y127.123 E18.65032
G1 X148.257 Y127.201 E18.65912
G1 X148.452 Y127.428 E18.66908
G1 X148.538 Y127.755 E18.68032
G1 X148.454 Y128.054 E18.69065
G1 X148.193 Y128.312 E18.70286
G1 X148.006 Y128.372 E18.70939
G1 X147.82 Y128.31 E18.71591
G1 X147.552 Y128.04 E18.72856
G1 X147.467 Y127.753 E18.73852
G0 F6000 X147.882 Y127.747
G1 F1200 X147.916 Y127.621 E18.74286
G1 X147.977 Y127.55 E18.74597
G1 X148.004 Y127.542 E18.74691
G1 X148.029 Y127.549 E18.74777
G1 X148.088 Y127.618 E18.75079
G1 X148.123 Y127.751 E18.75537
G1 X148.097 Y127.845 E18.75861
G1 X148.009 Y127.932 E18.76273
G1 X147.906 Y127.828 E18.7676
G1 X147.882 Y127.747 E18.77041
G0 F6000 X149.2 Y127.761
G1 F1200 X149.287 Y127.437 E18.78156
G1 X149.481 Y127.21 E18.7915
G1 X149.737 Y127.131 E18.80041
G1 X149.99 Y127.209 E18.80921
G1 X150.185 Y127.436 E18.81916
G1 X150.271 Y127.763 E18.83041
G1 X150.187 Y128.062 E18.84074
G1 X149.926 Y128.32 E18.85295
G1 X149.739 Y128.38 E18.85948
G1 X149.553 Y128.318 E18.866
G1 X149.285 Y128.048 E18.87865
G1 X149.2 Y127.761 E18.88861
G0 F6000 X149.615 Y127.755
G1 F1200 X149.649 Y127.629 E18.89295
G1 X149.71 Y127.558 E18.89606
G1 X149.737 Y127.55 E18.897
G1 X149.762 Y127.557 E18.89786
G1 X149.821 Y127.626 E18.90088
G1 X149.856 Y127.759 E18.90546
G1 X149.83 Y127.853 E18.9087
G1 X149.742 Y127.94 E18.91282
G1 X149.639 Y127.836 E18.91768
G1 X149.615 Y127.755 E18.92049
G0 F6000 X150.933 Y127.769
G1 F1200 X151.02 Y127.445 E18.93165
G1 X151.214 Y127.218 E18.94158
G1 X151.47 Y127.139 E18.95049
G1 X151.723 Y127.217 E18.9593
G1 X151.918 Y127.444 E18.96925
G1 X152.004 Y127.771 E18.9805
G1 X151.92 Y128.07 E18.99083
G1 X151.659 Y128.328 E19.00304
G1 X151.472 Y128.388 E19.00957
G1 X151.286 Y128.326 E19.01609
G1 X151.018 Y128.056 E19.02874
G1 X150.933 Y127.769 E19.0387
G0 F6000 X151.348 Y127.765
G1 F1200 X151.382 Y127.637 E19.0431
