;FLAVOR:Marlin
;TIME:2469
;Filament used: 1.07859m
;Layer height: 0.2
;MINX:121.5
;MINY:121.872
;MINZ:0.2
;MAXX:179.356
;MAXY:176.385
;MAXZ:18.4
;TARGET_MACHINE.NAME:Creality CR-10
;POSTPROCESSED
;  [CreateThumbnail]
;  [CreateThumbnail]
;Generated with Cura_SteamEngine 5.7.0
;
;

;
;



; Pre-Processed for Cancel-Object support by preprocess_cancellation v0.2.0
; 1 known objects
EXCLUDE_OBJECT_DEFINE NAME=H2_20V2S_20BLTouch_20Mount_STL CENTER=153.640,148.265 POLYGON=[[122.3,122.672],[122.3,175.585],[178.556,175.585],[178.556,122.672]]
M82 ;absolute extrusion mode
start_print BED_TEMP=60 EXTRUDER_TEMP=205.0 MATERIAL='PLA'
G92 E0
G92 E0
G1 F2700 E-5
;LAYER_COUNT:92
;LAYER:0
M107
G0 F6000 X125.967 Y131.988 Z0.2
;TYPE:SKIRT
G1 F2700 E0
G1 F1200 X126.679 Y131.329 E0.03227
G1 X127.313 Y130.832 E0.05906
G1 X127.868 Y130.431 E0.08184
G1 X128.668 Y129.905 E0.11368
G1 X129.136 Y129.641 E0.13155
G1 X130.589 Y128.867 E0.18631
G1 X132.788 Y127.643 E0.27001
G1 X134.966 Y126.351 E0.35424
G1 X137.142 Y124.973 E0.43991
G1 X138.398 Y124.142 E0.49
G1 X139.235 Y123.643 E0.52241
G1 X140.124 Y123.217 E0.55519
G1 X141.318 Y122.785 E0.59743
G1 X142.358 Y122.481 E0.63346
G1 X143.258 Y122.239 E0.66446
G1 X144.209 Y122.032 E0.69683
G1 X145.175 Y121.909 E0.72922
G1 X146.147 Y121.872 E0.76157
G1 X147.05 Y121.915 E0.79164
G1 X148.174 Y122.075 E0.8294
G1 X150.133 Y122.471 E0.89588
G1 X152.6 Y122.917 E0.97926
G1 X155.125 Y123.298 E1.06419
G1 X156.746 Y123.513 E1.11858
G1 X158.794 Y123.856 E1.18765
G1 X161.343 Y124.241 E1.27339
G1 X163.792 Y124.541 E1.35545
G1 X164.901 Y124.661 E1.39255
G1 X165.885 Y124.814 E1.42567
G1 X166.49 Y124.953 E1.44632
G1 X167.468 Y125.208 E1.47993
G1 X168.582 Y125.534 E1.51854
G1 X169.501 Y125.854 E1.55091
G1 X170.389 Y126.255 E1.58331
G1 X171.238 Y126.733 E1.61572
G1 X172.041 Y127.284 E1.64811
G1 X172.788 Y127.899 E1.68029
G1 X173.326 Y128.419 E1.70518
G1 X174.244 Y129.372 E1.74919
G1 X174.726 Y129.896 E1.77287
G1 X175.352 Y130.643 E1.80529
G1 X175.907 Y131.441 E1.83761
G1 X176.376 Y132.255 E1.86886
G1 X176.785 Y133.138 E1.90123
G1 X177.122 Y134.071 E1.93422
G1 X177.353 Y134.832 E1.96067
G1 X177.664 Y135.936 E1.99882
G1 X177.879 Y136.857 E2.03028
G1 X178.043 Y138.128 E2.0729
G1 X178.13 Y139.371 E2.11434
G1 X178.424 Y142.77 E2.22782
G1 X178.463 Y143.557 E2.25403
G1 X178.48 Y144.716 E2.29258
G1 X178.554 Y147.345 E2.38005
G1 X178.695 Y149.795 E2.46168
G1 X178.911 Y152.347 E2.54686
G1 X179.289 Y155.585 E2.65529
G1 X179.356 Y156.557 E2.68769
G1 X179.337 Y157.531 E2.72009
G1 X179.232 Y158.496 E2.75238
G1 X179.075 Y159.311 E2.77998
G1 X178.917 Y159.953 E2.80198
G1 X178.708 Y160.708 E2.82803
G1 X178.437 Y161.628 E2.85993
G1 X178.118 Y162.549 E2.89235
G1 X177.72 Y163.437 E2.92471
G1 X177.243 Y164.287 E2.95713
G1 X176.685 Y165.102 E2.98998
G1 X175.818 Y166.121 E3.03448
G1 X175.061 Y166.899 E3.07059
G1 X174.367 Y167.578 E3.10288
G1 X173.64 Y168.226 E3.13527
G1 X172.888 Y168.787 E3.16648
G1 X172.028 Y169.318 E3.20009
G1 X171.159 Y169.751 E3.23239
G1 X170.32 Y170.084 E3.26241
G1 X169.792 Y170.253 E3.28085
G1 X168.787 Y170.547 E3.31568
G1 X167.682 Y170.843 E3.35372
G1 X165.144 Y171.555 E3.4414
G1 X162.39 Y172.415 E3.53736
G1 X160.933 Y172.89 E3.58833
G1 X157.401 Y173.934 E3.71083
G1 X155 Y174.717 E3.79482
G1 X153.394 Y175.284 E3.85147
G1 X152.868 Y175.453 E3.86985
G1 X151.582 Y175.829 E3.91441
G1 X150.834 Y176.026 E3.94014
G1 X149.883 Y176.23 E3.97249
G1 X148.917 Y176.35 E4.00486
G1 X148.014 Y176.385 E4.03492
G1 X146.971 Y176.331 E4.06966
G1 X146.006 Y176.193 E4.10208
G1 X145.061 Y175.972 E4.13436
G1 X143.912 Y175.644 E4.1741
G1 X143.194 Y175.423 E4.19909
G1 X142.35 Y175.123 E4.22888
G1 X141.343 Y174.717 E4.26499
G1 X138.928 Y173.782 E4.35112
G1 X136.564 Y172.943 E4.43456
G1 X134.136 Y172.158 E4.51943
G1 X131.494 Y171.365 E4.61117
G1 X130.589 Y171.028 E4.64329
G1 X129.913 Y170.715 E4.66807
G1 X129.327 Y170.419 E4.68991
G1 X128.54 Y169.977 E4.71993
G1 X127.791 Y169.471 E4.74999
G1 X127.277 Y169.092 E4.77123
G1 X126.575 Y168.524 E4.80127
G1 X125.939 Y167.917 E4.83051
G1 X125.468 Y167.43 E4.85304
G1 X124.823 Y166.701 E4.88542
G1 X124.261 Y165.938 E4.91693
G1 X123.894 Y165.392 E4.93882
G1 X123.424 Y164.621 E4.96885
G1 X123.048 Y163.884 E4.99637
G1 X122.673 Y163.045 E5.02693
G1 X122.341 Y162.171 E5.05803
G1 X122.115 Y161.401 E5.08472
G1 X121.958 Y160.777 E5.10612
G1 X121.766 Y159.829 E5.13829
G1 X121.669 Y159.041 E5.1647
G1 X121.616 Y158.414 E5.18563
G1 X121.58 Y157.709 E5.20911
G1 X121.566 Y156.952 E5.23429
G1 X121.5 Y143.214 E5.69122
G1 X121.519 Y142.088 E5.72868
G1 X121.556 Y141.355 E5.75309
G1 X121.589 Y140.973 E5.76584
G1 X121.711 Y140.048 E5.79687
G1 X121.85 Y139.384 E5.81944
G1 X121.993 Y138.793 E5.83966
G1 X122.269 Y137.844 E5.87253
G1 X122.591 Y137.005 E5.90242
G1 X122.881 Y136.338 E5.92661
G1 X123.312 Y135.461 E5.95911
G1 X123.834 Y134.604 E5.99249
G1 X124.249 Y133.988 E6.01719
G1 X124.833 Y133.205 E6.04968
G1 X125.506 Y132.454 E6.08322
G1 X125.967 Y131.988 E6.10502
G0 F6000 X126.239 Y132.281
G1 F1200 X126.926 Y131.644 E6.13618
G1 X127.548 Y131.156 E6.16248
G1 X128.088 Y130.765 E6.18465
G1 X128.865 Y130.253 E6.2156
G1 X129.324 Y129.994 E6.23313
G1 X130.784 Y129.217 E6.28814
G1 X132.983 Y127.993 E6.37185
G1 X135.178 Y126.69 E6.45675
G1 X137.356 Y125.311 E6.54249
G1 X138.603 Y124.485 E6.59224
G1 X139.409 Y124.003 E6.62347
G1 X140.26 Y123.593 E6.65489
G1 X141.43 Y123.169 E6.69628
G1 X142.462 Y122.867 E6.73204
G1 X143.344 Y122.63 E6.76242
G1 X144.26 Y122.429 E6.79361
G1 X145.191 Y122.309 E6.82483
G1 X146.128 Y122.272 E6.85602
G1 X147.031 Y122.315 E6.88609
G1 X148.095 Y122.467 E6.92184
G1 X150.062 Y122.865 E6.98859
G1 X152.54 Y123.313 E7.07234
G1 X155.072 Y123.695 E7.15751
G1 X156.693 Y123.91 E7.2119
G1 X158.734 Y124.252 E7.28073
G1 X161.283 Y124.637 E7.36647
G1 X163.749 Y124.939 E7.4491
G1 X164.858 Y125.059 E7.4862
G1 X165.796 Y125.204 E7.51777
G1 X166.389 Y125.34 E7.538
G1 X167.356 Y125.592 E7.57124
G1 X168.451 Y125.912 E7.60918
G1 X169.337 Y126.219 E7.64037
G1 X170.193 Y126.604 E7.67159
G1 X171.012 Y127.063 E7.70282
G1 X171.787 Y127.593 E7.73404
G1 X172.51 Y128.187 E7.76517
G1 X173.038 Y128.696 E7.78956
G1 X173.95 Y129.643 E7.83329
G1 X174.42 Y130.153 E7.85635
G1 X175.024 Y130.872 E7.88759
G1 X175.56 Y131.641 E7.91876
G1 X176.029 Y132.455 E7.95001
G1 X176.409 Y133.274 E7.98004
G1 X176.739 Y134.187 E8.01233
G1 X176.968 Y134.94 E8.03851
G1 X177.274 Y136.027 E8.07606
G1 X177.489 Y136.948 E8.10752
G1 X177.644 Y138.156 E8.14803
G1 X177.731 Y139.405 E8.18967
G1 X178.025 Y142.804 E8.30314
G1 X178.063 Y143.563 E8.32842
G1 X178.08 Y144.727 E8.36714
G1 X178.154 Y147.356 E8.45461
G1 X178.296 Y149.829 E8.537
G1 X178.513 Y152.381 E8.62219
G1 X178.89 Y155.613 E8.73041
G1 X178.956 Y156.55 E8.76166
G1 X178.939 Y157.488 E8.79286
G1 X178.839 Y158.42 E8.82404
G1 X178.682 Y159.235 E8.85164
G1 X178.531 Y159.846 E8.87257
G1 X178.324 Y160.595 E8.89842
G1 X178.059 Y161.498 E8.92972
G1 X177.753 Y162.386 E8.96096
G1 X177.371 Y163.242 E8.99214
G1 X176.913 Y164.062 E9.02338
G1 X176.38 Y164.843 E9.05482
G1 X175.531 Y165.842 E9.09843
G1 X174.781 Y166.613 E9.1342
G1 X174.1 Y167.28 E9.16591
G1 X173.401 Y167.905 E9.1971
G1 X172.649 Y168.466 E9.2283
G1 X171.849 Y168.96 E9.25957
G1 X171.011 Y169.379 E9.29074
G1 X170.172 Y169.712 E9.32076
G1 X169.68 Y169.869 E9.33794
G1 X168.683 Y170.161 E9.37249
G1 X167.578 Y170.457 E9.41054
G1 X165.025 Y171.173 E9.49873
G1 X162.271 Y172.033 E9.59469
G1 X160.809 Y172.51 E9.64584
G1 X157.288 Y173.55 E9.76795
G1 X154.876 Y174.337 E9.85233
G1 X153.271 Y174.903 E9.90894
G1 X152.756 Y175.069 E9.92693
G1 X151.48 Y175.442 E9.97115
G1 X150.75 Y175.635 E9.99626
G1 X149.833 Y175.833 E10.02747
G1 X148.902 Y175.95 E10.05867
G1 X147.999 Y175.985 E10.08873
G1 X147.027 Y175.935 E10.1211
G1 X146.097 Y175.804 E10.15234
G1 X145.171 Y175.587 E10.18397
G1 X144.03 Y175.262 E10.22343
G1 X143.328 Y175.046 E10.24786
G1 X142.5 Y174.752 E10.27709
G1 X141.493 Y174.346 E10.3132
G1 X139.062 Y173.405 E10.3999
G1 X136.687 Y172.562 E10.48372
G1 X134.259 Y171.777 E10.56859
G1 X131.633 Y170.99 E10.65977
G1 X130.757 Y170.665 E10.69085
G1 X130.093 Y170.358 E10.71518
G1 X129.523 Y170.07 E10.73642
G1 X128.736 Y169.628 E10.76644
G1 X128.028 Y169.149 E10.79487
G1 X127.529 Y168.781 E10.81549
G1 X126.827 Y168.213 E10.84553
G1 X126.226 Y167.639 E10.87317
G1 X125.767 Y167.165 E10.89512
G1 X125.145 Y166.463 E10.92631
G1 X124.593 Y165.715 E10.95723
G1 X124.236 Y165.184 E10.97851
G1 X123.766 Y164.413 E11.00854
G1 X123.413 Y163.721 E11.03438
G1 X123.047 Y162.902 E11.06422
G1 X122.725 Y162.058 E11.09426
G1 X122.503 Y161.303 E11.12044
G1 X122.35 Y160.697 E11.14123
G1 X122.163 Y159.78 E11.17235
G1 X122.068 Y159.007 E11.19826
G1 X122.015 Y158.38 E11.21919
G1 X121.98 Y157.702 E11.24177
G1 X121.966 Y156.95 E11.26678
G1 X121.9 Y143.22 E11.72345
G1 X121.918 Y142.108 E11.76044
G1 X121.954 Y141.39 E11.78435
G1 X121.986 Y141.025 E11.79654
G1 X122.103 Y140.13 E11.82656
G1 X122.239 Y139.478 E11.84871
G1 X122.377 Y138.904 E11.86835
G1 X122.642 Y137.987 E11.90009
G1 X122.958 Y137.164 E11.92941
G1 X123.24 Y136.514 E11.95298
G1 X123.654 Y135.669 E11.98428
G1 X124.166 Y134.827 E12.01705
G1 X124.57 Y134.227 E12.04111
G1 X125.131 Y133.472 E12.0724
G1 X125.804 Y132.721 E12.10594
G1 X126.239 Y132.281 E12.12652
G0 F6000 X126.511 Y132.574
G1 F1200 X127.173 Y131.959 E12.15657
G1 X127.783 Y131.48 E12.18237
G1 X128.308 Y131.099 E12.20394
G1 X129.062 Y130.601 E12.23399
G1 X129.512 Y130.347 E12.25118
G1 X130.979 Y129.567 E12.30644
G1 X133.178 Y128.343 E12.39015
G1 X135.39 Y127.029 E12.47572
G1 X137.57 Y125.649 E12.56154
G1 X138.809 Y124.828 E12.61097
G1 X139.583 Y124.363 E12.641
G1 X140.396 Y123.969 E12.67105
G1 X141.543 Y123.553 E12.71163
G1 X142.566 Y123.253 E12.74709
G1 X143.43 Y123.021 E12.77684
G1 X144.312 Y122.826 E12.80689
G1 X145.207 Y122.709 E12.83691
G1 X146.109 Y122.672 E12.86694
G1 X147.012 Y122.715 E12.897
G1 X148.038 Y122.863 E12.93148
G1 X149.095 Y123.071 E12.96731
G1 X149.991 Y123.259 E12.99776
G1 X152.48 Y123.709 E13.08189
G1 X155.009 Y124.091 E13.16696
G1 X156.641 Y124.307 E13.22171
G1 X158.674 Y124.648 E13.29027
G1 X161.223 Y125.033 E13.37602
G1 X163.706 Y125.337 E13.45922
G1 X164.815 Y125.457 E13.49632
G1 X165.707 Y125.594 E13.52633
G1 X166.288 Y125.727 E13.54616
G1 X167.244 Y125.976 E13.57902
G1 X168.321 Y126.29 E13.61633
G1 X169.174 Y126.584 E13.64634
G1 X169.998 Y126.953 E13.67637
G1 X170.787 Y127.394 E13.70643
G1 X171.533 Y127.902 E13.73645
G1 X172.232 Y128.475 E13.76651
G1 X172.75 Y128.974 E13.79043
G1 X173.656 Y129.914 E13.83385
G1 X174.114 Y130.411 E13.85633
G1 X174.696 Y131.101 E13.88636
G1 X175.214 Y131.841 E13.9164
G1 X175.666 Y132.623 E13.94644
G1 X176.046 Y133.442 E13.97647
G1 X176.356 Y134.304 E14.00694
G1 X176.583 Y135.049 E14.03284
G1 X176.885 Y136.119 E14.06982
G1 X177.092 Y136.999 E14.09989
G1 X177.245 Y138.184 E14.13963
G1 X177.332 Y139.439 E14.18147
G1 X177.626 Y142.838 E14.29494
G1 X177.663 Y143.569 E14.31929
G1 X177.68 Y144.738 E14.35817
G1 X177.754 Y147.367 E14.44565
G1 X177.897 Y149.863 E14.5288
G1 X178.115 Y152.415 E14.61399
G1 X178.491 Y155.642 E14.72205
G1 X178.556 Y156.543 E14.75209
G1 X178.541 Y157.446 E14.78213
G1 X178.446 Y158.344 E14.81217
G1 X178.289 Y159.159 E14.83977
G1 X178.145 Y159.74 E14.85968
G1 X177.94 Y160.483 E14.88531
G1 X177.681 Y161.368 E14.91598
G1 X177.388 Y162.223 E14.94605
G1 X177.021 Y163.048 E14.97608
G1 X176.582 Y163.837 E15.00611
G1 X176.075 Y164.584 E15.03614
G1 X175.226 Y165.583 E15.07974
G1 X174.501 Y166.327 E15.11429
G1 X173.833 Y166.982 E15.14541
G1 X173.161 Y167.585 E15.17544
G1 X172.438 Y168.126 E15.20547
G1 X171.67 Y168.602 E15.23553
G1 X170.863 Y169.007 E15.26556
G1 X170.024 Y169.34 E15.29558
G1 X169.567 Y169.485 E15.31153
G1 X168.58 Y169.775 E15.34574
G1 X167.47 Y170.072 E15.38396
G1 X164.906 Y170.791 E15.47253
G1 X162.152 Y171.651 E15.56849
G1 X160.685 Y172.13 E15.61982
G1 X157.175 Y173.166 E15.74154
G1 X154.752 Y173.957 E15.82631
G1 X153.148 Y174.522 E15.88287
G1 X152.644 Y174.685 E15.90049
G1 X151.377 Y175.055 E15.94439
G1 X150.665 Y175.244 E15.9689
G1 X149.783 Y175.436 E15.99892
G1 X148.887 Y175.55 E16.02896
G1 X147.984 Y175.585 E16.05902
G1 X147.082 Y175.539 E16.08905
G1 X146.188 Y175.414 E16.11908
G1 X145.28 Y175.202 E16.15009
G1 X144.148 Y174.88 E16.18924
G1 X143.462 Y174.669 E16.21311
G1 X142.65 Y174.381 E16.24176
G1 X141.643 Y173.975 E16.27787
G1 X139.196 Y173.028 E16.36514
G1 X136.81 Y172.181 E16.44936
G1 X134.382 Y171.396 E16.53423
G1 X131.772 Y170.615 E16.62484
G1 X130.925 Y170.302 E16.65487
G1 X130.273 Y170.001 E16.67876
G1 X129.719 Y169.721 E16.6994
G1 X128.932 Y169.279 E16.72942
G1 X128.265 Y168.827 E16.75622
G1 X127.781 Y168.47 E16.77623
G1 X127.079 Y167.902 E16.80626
G1 X126.513 Y167.361 E16.8323
G1 X126.066 Y166.9 E16.85366
G1 X125.467 Y166.225 E16.88368
G1 X124.925 Y165.492 E16.914
G1 X124.578 Y164.976 E16.93468
G1 X124.108 Y164.205 E16.96471
G1 X123.778 Y163.558 E16.98887
G1 X123.421 Y162.759 E17.01797
G1 X123.099 Y161.915 E17.04802
G1 X122.891 Y161.205 E17.07263
G1 X122.742 Y160.616 E17.09283
G1 X122.56 Y159.731 E17.12288
G1 X122.467 Y158.973 E17.14829
G1 X122.414 Y158.346 E17.16921
G1 X122.38 Y157.695 E17.1909
G1 X122.366 Y156.948 E17.21575
G1 X122.3 Y143.226 E17.67215
G1 X122.317 Y142.128 E17.70867
G1 X122.353 Y141.424 E17.73212
G1 X122.383 Y141.077 E17.7437
G1 X122.5 Y140.182 E17.77372
G1 X122.628 Y139.572 E17.79445
G1 X122.766 Y138.998 E17.81409
G1 X123.015 Y138.13 E17.84412
G1 X123.325 Y137.323 E17.87287
G1 X123.6 Y136.689 E17.89586
G1 X123.996 Y135.877 E17.92591
G1 X124.498 Y135.05 E17.95808
G1 X124.892 Y134.465 E17.98154
G1 X125.429 Y133.739 E18.01158
G1 X126.089 Y133.002 E18.04448
G1 X126.511 Y132.574 E18.06447
G1 F2700 E13.06447
G0 F6000 X143.451 Y134.657
G1 F2700 E18.06447
G1 F1200 X144.549 Y133.498 E18.11757
G1 X146.074 Y133.07 E18.17026
G1 X147.599 Y133.498 E18.22294
G1 X148.697 Y134.657 E18.27604
G1 X149.124 Y136.117 E18.32663
G1 X148.697 Y137.643 E18.37934
G1 X147.598 Y138.742 E18.43103
G1 X146.072 Y139.169 E18.48373
G1 X144.616 Y138.743 E18.53419
G1 X143.45 Y137.577 E18.58904
G1 X143.022 Y136.119 E18.63958
G1 X143.451 Y134.657 E18.69025
G0 F6000 X143.808 Y134.863
G1 F1200 X144.764 Y133.852 E18.73653
G1 X146.074 Y133.485 E18.78178
G1 X147.384 Y133.852 E18.82703
G1 X148.341 Y134.863 E18.87333
G1 X148.708 Y136.119 E18.91685
G1 X148.34 Y137.434 E18.96227
G1 X147.389 Y138.385 E19.007
G1 X146.075 Y138.753 E19.05239
G1 X144.827 Y138.388 E19.09563
G1 X143.805 Y137.366 E19.14371
G1 X143.44 Y136.119 E19.18692
G1 X143.808 Y134.863 E19.23045
G0 F6000 X144.165 Y135.067
G1 F1200 X144.978 Y134.208 E19.26979
G1 X146.074 Y133.901 E19.30765
G1 X147.17 Y134.208 E19.3455
G1 X147.984 Y135.067 E19.38486
G1 X148.292 Y136.123 E19.42145
G1 X147.983 Y137.225 E19.45952
G1 X147.18 Y138.028 E19.49729
G1 X146.078 Y138.337 E19.53535
G1 X145.037 Y138.032 E19.57143
G1 X144.16 Y137.155 E19.61268
G1 X143.856 Y136.119 E19.64859
G1 X144.165 Y135.067 E19.68506
G0 F6000 X144.522 Y135.272
G1 F1200 X145.193 Y134.563 E19.71753
G1 X146.074 Y134.316 E19.74796
G1 X146.955 Y134.563 E19.77839
G1 X147.626 Y135.272 E19.81086
G1 X147.876 Y136.126 E19.84046
G1 X147.627 Y137.015 E19.87116
G1 X146.97 Y137.672 E19.90207
G1 X146.081 Y137.921 E19.93277
G1 X145.248 Y137.677 E19.96164
G1 X144.514 Y136.943 E19.99617
G1 X144.273 Y136.119 E20.02472
G1 X144.522 Y135.272 E20.05409
G0 F6000 X144.877 Y135.478
G1 F1200 X145.407 Y134.918 E20.07973
G1 X146.074 Y134.731 E20.10277
G1 X146.741 Y134.918 E20.12581
G1 X147.269 Y135.476 E20.15136
G1 X147.46 Y136.129 E20.17399
G1 X147.271 Y136.805 E20.19734
G1 X146.76 Y137.316 E20.22137
G1 X146.084 Y137.505 E20.24472
G1 X145.459 Y137.322 E20.26638
G1 X144.869 Y136.732 E20.29413
G1 X144.689 Y136.119 E20.31538
G1 X144.877 Y135.478 E20.3376
G0 F6000 X145.234 Y135.683
G1 F1200 X145.623 Y135.273 E20.35639
G1 X146.074 Y135.146 E20.37198
G1 X146.525 Y135.273 E20.38756
G1 X146.913 Y135.682 E20.40631
G1 X147.043 Y136.13 E20.42183
G1 X146.912 Y136.598 E20.43799
G1 X146.553 Y136.957 E20.45488
G1 X146.085 Y137.088 E20.47104
G1 X145.67 Y136.967 E20.48542
G1 X145.225 Y136.522 E20.50635
