;FLAVOR:Marlin
;TIME:8830
;Filament used: 4.88955m
;Layer height: 0.2
;MINX:91.836
;MINY:91.551
;MINZ:0.2
;MAXX:208.163
;MAXY:208.45
;MAXZ:7
;TARGET_MACHINE.NAME:Creality CR-10
;POSTPROCESSED
;  [CreateThumbnail]
;  [CreateThumbnail]
;Generated with Cura_SteamEngine 5.7.0
;
;

;
;



; Pre-Processed for Cancel-Object support by preprocess_cancellation v0.2.0
; 1 known objects
EXCLUDE_OBJECT_DEFINE NAME=BIQU_H2_mount_CR10_stl CENTER=148.913,157.042 POLYGON=[[92.836,92.551],[92.836,207.45],[207.163,207.45],[207.163,92.551]]
M82 ;absolute extrusion mode
start_print BED_TEMP=60 EXTRUDER_TEMP=205.0 MATERIAL='PLA'
G92 E0
G92 E0
G1 F2700 E-5
;LAYER_COUNT:35
;LAYER:0
M107
G0 F6000 X121.402 Y97.007 Z0.2
;TYPE:SKIRT
G1 F2700 E0
G1 F1200 X121.718 Y96.624 E0.02064
G1 X122.231 Y96.044 E0.05284
G1 X122.464 Y95.8 E0.06686
G1 X123.145 Y95.144 E0.10617
G1 X123.828 Y94.586 E0.14284
G1 X124.277 Y94.249 E0.16618
G1 X125.064 Y93.712 E0.20579
G1 X126.046 Y93.165 E0.25253
G1 X126.615 Y92.887 E0.27886
G1 X127.521 Y92.494 E0.31991
G1 X128.3 Y92.228 E0.35414
G1 X128.706 Y92.107 E0.37175
G1 X129.63 Y91.872 E0.41139
G1 X130.623 Y91.695 E0.45332
G1 X131.174 Y91.635 E0.47637
G1 X131.697 Y91.591 E0.49819
G1 X132.571 Y91.556 E0.53455
G1 X136.235 Y91.551 E0.68688
G1 X137.202 Y91.564 E0.72709
G1 X138.028 Y91.606 E0.76148
G1 X138.417 Y91.641 E0.77772
G1 X139.315 Y91.762 E0.81539
G1 X140.233 Y91.958 E0.85441
G1 X141.184 Y92.221 E0.89544
G1 X142.158 Y92.563 E0.93835
G1 X143.165 Y93.012 E0.98419
G1 X143.457 Y93.16 E0.9978
G1 X144.317 Y93.643 E1.03881
G1 X144.569 Y93.801 E1.05118
G1 X145.597 Y94.528 E1.10352
G1 X145.815 Y94.701 E1.11509
G1 X146.586 Y95.376 E1.1577
G1 X146.977 Y95.752 E1.18025
G1 X147.351 Y96.129 E1.20233
G1 X149.303 Y98.197 E1.32056
G1 X151.065 Y99.958 E1.42413
G1 X152.884 Y101.68 E1.52826
G1 X154.762 Y103.355 E1.63289
G1 X156.662 Y104.959 E1.73626
G1 X158.664 Y106.553 E1.84266
G1 X160.622 Y108.024 E1.94448
G1 X162.721 Y109.507 E2.05133
G1 X164.776 Y110.877 E2.15401
G1 X166.923 Y112.22 E2.25929
G1 X169.075 Y113.484 E2.36306
G1 X171.26 Y114.686 E2.46674
G1 X173.499 Y115.835 E2.57136
G1 X175.786 Y116.929 E2.67677
G1 X178.059 Y117.938 E2.78016
G1 X180.425 Y118.908 E2.88647
G1 X182.733 Y119.78 E2.98905
G1 X185.156 Y120.618 E3.09564
G1 X187.519 Y121.362 E3.19863
G1 X189.898 Y122.035 E3.30142
G1 X192.378 Y122.664 E3.40779
G1 X194.948 Y123.228 E3.51719
G1 X196.158 Y123.525 E3.56898
G1 X197.125 Y123.813 E3.61093
G1 X198.096 Y124.188 E3.65421
G1 X198.998 Y124.596 E3.69537
G1 X199.588 Y124.896 E3.72289
G1 X200.661 Y125.52 E3.77449
G1 X200.952 Y125.712 E3.78898
G1 X201.709 Y126.257 E3.82777
G1 X202.148 Y126.603 E3.851
G1 X202.968 Y127.318 E3.89624
G1 X203.467 Y127.797 E3.92499
G1 X204.133 Y128.495 E3.9651
G1 X204.594 Y129.057 E3.99532
G1 X204.918 Y129.481 E4.01751
G1 X205.487 Y130.302 E4.05904
G1 X205.858 Y130.894 E4.08808
G1 X206.444 Y131.954 E4.13844
G1 X206.585 Y132.247 E4.15196
G1 X206.959 Y133.119 E4.19141
G1 X207.265 Y133.925 E4.22725
G1 X207.568 Y134.85 E4.26772
G1 X207.708 Y135.406 E4.29155
G1 X207.868 Y136.162 E4.32368
G1 X207.951 Y136.631 E4.34348
G1 X208.097 Y137.825 E4.39349
G1 X208.138 Y138.515 E4.42223
G1 X208.16 Y139.357 E4.45725
G1 X208.163 Y151.282 E4.95303
G1 X208.146 Y152.358 E4.99777
G1 X208.086 Y153.336 E5.03851
G1 X208.04 Y153.763 E5.05637
G1 X207.88 Y154.778 E5.09909
G1 X207.77 Y155.304 E5.12143
G1 X207.618 Y155.938 E5.14853
G1 X207.423 Y156.613 E5.17774
G1 X207.275 Y157.074 E5.19787
G1 X206.948 Y157.956 E5.23698
G1 X206.729 Y158.444 E5.25922
G1 X206.416 Y159.099 E5.2894
G1 X205.975 Y159.927 E5.3284
G1 X205.694 Y160.38 E5.35057
G1 X205.267 Y161.032 E5.38297
G1 X204.695 Y161.825 E5.42362
G1 X204.329 Y162.262 E5.44732
G1 X203.98 Y162.656 E5.4692
G1 X203.306 Y163.354 E5.50954
G1 X202.721 Y163.908 E5.54304
G1 X202.037 Y164.501 E5.58068
G1 X201.409 Y164.968 E5.61321
G1 X200.986 Y165.261 E5.63461
G1 X199.929 Y165.949 E5.68704
G1 X198.761 Y166.682 E5.74437
G1 X196.682 Y168.067 E5.84823
G1 X194.664 Y169.499 E5.9511
G1 X192.622 Y171.035 E6.05734
G1 X190.669 Y172.593 E6.16121
G1 X188.725 Y174.235 E6.267
G1 X186.872 Y175.892 E6.37035
G1 X185.055 Y177.613 E6.4744
G1 X183.3 Y179.372 E6.5777
G1 X181.537 Y181.241 E6.68452
G1 X179.924 Y183.053 E6.78538
G1 X178.248 Y185.044 E6.89358
G1 X176.704 Y186.989 E6.99682
G1 X175.21 Y188.982 E7.10038
G1 X173.779 Y191.008 E7.2035
G1 X172.377 Y193.118 E7.30883
G1 X171.045 Y195.251 E7.41338
G1 X169.266 Y198.328 E7.56115
G1 X168.753 Y199.249 E7.60498
G1 X168.279 Y200.03 E7.64296
G1 X167.795 Y200.748 E7.67896
G1 X167.561 Y201.072 E7.69557
G1 X167.022 Y201.763 E7.73201
G1 X166.424 Y202.457 E7.7701
G1 X166.014 Y202.897 E7.7951
G1 X165.478 Y203.427 E7.82644
G1 X164.759 Y204.071 E7.86657
G1 X164.439 Y204.338 E7.8839
G1 X163.767 Y204.859 E7.91925
G1 X163.047 Y205.367 E7.95588
G1 X162.571 Y205.674 E7.97943
G1 X161.84 Y206.107 E8.01475
G1 X161.045 Y206.529 E8.05217
G1 X160.219 Y206.915 E8.09008
G1 X159.404 Y207.248 E8.12668
G1 X158.582 Y207.538 E8.16292
G1 X157.655 Y207.814 E8.20313
G1 X156.846 Y208.011 E8.23775
G1 X155.923 Y208.19 E8.27684
G1 X155.051 Y208.314 E8.31346
G1 X154.238 Y208.393 E8.34742
G1 X153.361 Y208.436 E8.38392
G1 X152.295 Y208.45 E8.42825
G1 X150.962 Y208.443 E8.48367
G1 X150.152 Y208.418 E8.51736
G1 X149.21 Y208.342 E8.55665
G1 X148.617 Y208.271 E8.58148
G1 X148.063 Y208.19 E8.60476
G1 X145.603 Y207.762 E8.70857
G1 X143.143 Y207.4 E8.81195
G1 X140.622 Y207.102 E8.91749
G1 X138.135 Y206.878 E9.0213
G1 X135.666 Y206.729 E9.12414
G1 X133.1 Y206.645 E9.23088
G1 X130.621 Y206.635 E9.33394
G1 X128.088 Y206.696 E9.43928
G1 X125.609 Y206.825 E9.54249
G1 X123.085 Y207.028 E9.64776
G1 X120.597 Y207.3 E9.75182
G1 X118.119 Y207.642 E9.85582
G1 X114.634 Y208.226 E10.00273
G1 X114 Y208.314 E10.02934
G1 X113.187 Y208.393 E10.0633
G1 X112.31 Y208.436 E10.0998
G1 X111.242 Y208.45 E10.14421
G1 X109.96 Y208.443 E10.19751
G1 X109.152 Y208.418 E10.23112
G1 X108.173 Y208.338 E10.27196
G1 X107.525 Y208.257 E10.29911
G1 X106.829 Y208.148 E10.3284
G1 X106.002 Y207.977 E10.36351
G1 X105.181 Y207.768 E10.39873
G1 X104.277 Y207.49 E10.43805
G1 X103.898 Y207.358 E10.45473
G1 X103.082 Y207.041 E10.49113
G1 X102.289 Y206.69 E10.52718
G1 X101.764 Y206.432 E10.5515
G1 X101.037 Y206.037 E10.5859
G1 X100.693 Y205.835 E10.60249
G1 X99.927 Y205.349 E10.6402
G1 X99.226 Y204.855 E10.67586
G1 X98.526 Y204.309 E10.71277
G1 X97.822 Y203.704 E10.75136
G1 X97.39 Y203.298 E10.77601
G1 X96.828 Y202.729 E10.80926
G1 X96.22 Y202.052 E10.84709
G1 X95.952 Y201.729 E10.86454
G1 X95.431 Y201.06 E10.89979
G1 X94.899 Y200.302 E10.93829
G1 X94.425 Y199.55 E10.97525
G1 X94.007 Y198.814 E11.01044
G1 X93.742 Y198.299 E11.03452
G1 X93.379 Y197.52 E11.07025
G1 X93.226 Y197.159 E11.08655
G1 X92.908 Y196.338 E11.12315
G1 X92.644 Y195.543 E11.15798
G1 X92.377 Y194.574 E11.19977
G1 X92.204 Y193.806 E11.2325
G1 X92.039 Y192.852 E11.27275
G1 X91.969 Y192.318 E11.29514
G1 X91.892 Y191.494 E11.32955
G1 X91.845 Y190.492 E11.37125
G1 X91.836 Y189.647 E11.40638
G1 X91.837 Y141.644 E13.40212
G1 X91.853 Y140.551 E13.44756
G1 X91.874 Y140.019 E13.4697
G1 X91.908 Y139.482 E13.49207
G1 X91.962 Y138.863 E13.5179
G1 X92.112 Y137.684 E13.56731
G1 X92.192 Y137.191 E13.58808
G1 X92.301 Y136.61 E13.61266
G1 X92.431 Y136.011 E13.63814
G1 X92.59 Y135.367 E13.66572
G1 X92.879 Y134.348 E13.70975
G1 X93.041 Y133.844 E13.73176
G1 X93.259 Y133.219 E13.75928
G1 X93.45 Y132.716 E13.78165
G1 X93.86 Y131.735 E13.82586
G1 X94.115 Y131.18 E13.85125
G1 X94.617 Y130.194 E13.89725
G1 X94.885 Y129.711 E13.92021
G1 X95.212 Y129.154 E13.94707
G1 X95.783 Y128.256 E13.99131
G1 X96.095 Y127.801 E14.01425
G1 X96.464 Y127.293 E14.04035
G1 X96.779 Y126.881 E14.06191
G1 X97.172 Y126.391 E14.08803
G1 X97.534 Y125.964 E14.1113
G1 X97.953 Y125.495 E14.13745
G1 X98.335 Y125.087 E14.16068
G1 X99.062 Y124.365 E14.20328
G1 X99.78 Y123.708 E14.24374
G1 X101.442 Y122.264 E14.33528
G1 X103.305 Y120.561 E14.44022
G1 X105.117 Y118.809 E14.54501
G1 X106.863 Y117.019 E14.64897
G1 X108.545 Y115.197 E14.75206
G1 X110.217 Y113.279 E14.85785
G1 X111.826 Y111.326 E14.96305
G1 X113.367 Y109.342 E15.06749
G1 X114.824 Y107.35 E15.1701
G1 X116.266 Y105.262 E15.2756
G1 X117.615 Y103.184 E15.3786
G1 X118.949 Y100.994 E15.48521
G1 X120.37 Y98.506 E15.60433
G1 X120.876 Y97.706 E15.64369
G1 X121.402 Y97.007 E15.68006
G0 F6000 X121.802 Y97.308
G1 F1200 X122.092 Y96.955 E15.69905
G1 X122.593 Y96.389 E15.73048
G1 X122.811 Y96.16 E15.74362
G1 X123.462 Y95.531 E15.78126
G1 X124.128 Y94.986 E15.81704
G1 X124.559 Y94.662 E15.83945
G1 X125.346 Y94.125 E15.87906
G1 X126.266 Y93.614 E15.92282
G1 X126.815 Y93.345 E15.94824
G1 X127.683 Y92.967 E15.9876
G1 X128.443 Y92.707 E16.02099
G1 X128.829 Y92.592 E16.03774
G1 X129.753 Y92.357 E16.07737
G1 X130.677 Y92.192 E16.1164
G1 X131.216 Y92.133 E16.13894
G1 X131.717 Y92.091 E16.15984
G1 X132.572 Y92.056 E16.19542
G1 X136.229 Y92.051 E16.34746
G1 X137.177 Y92.063 E16.38688
G1 X137.983 Y92.104 E16.42043
G1 X138.35 Y92.137 E16.43575
G1 X139.248 Y92.258 E16.47342
G1 X140.1 Y92.44 E16.50964
G1 X141.019 Y92.693 E16.54927
G1 X141.954 Y93.02 E16.59045
G1 X142.961 Y93.469 E16.63629
G1 X143.212 Y93.596 E16.64799
G1 X144.051 Y94.067 E16.68799
G1 X144.303 Y94.225 E16.70035
G1 X145.286 Y94.92 E16.75041
G1 X145.504 Y95.093 E16.76198
G1 X146.24 Y95.737 E16.80264
G1 X146.622 Y96.104 E16.82466
G1 X146.987 Y96.472 E16.84621
G1 X148.939 Y98.54 E16.96444
G1 X150.721 Y100.321 E17.06918
G1 X152.551 Y102.053 E17.17394
G1 X154.429 Y103.728 E17.27856
G1 X156.351 Y105.35 E17.38312
G1 X158.364 Y106.953 E17.4901
G1 X160.333 Y108.432 E17.59249
G1 X162.432 Y109.915 E17.69934
G1 X164.511 Y111.301 E17.80322
G1 X166.658 Y112.644 E17.90851
G1 X168.834 Y113.922 E18.01342
G1 X171.032 Y115.131 E18.11772
G1 X173.283 Y116.286 E18.2229
G1 X175.583 Y117.386 E18.3289
G1 X177.869 Y118.401 E18.43289
G1 X180.238 Y119.372 E18.53933
G1 X182.561 Y120.25 E18.64258
G1 X184.993 Y121.091 E18.74956
G1 X187.37 Y121.839 E18.85317
G1 X189.775 Y122.52 E18.95708
G1 X192.255 Y123.149 E19.06346
G1 X194.829 Y123.714 E19.17302
G1 X196.039 Y124.011 E19.22482
G1 X196.945 Y124.28 E19.26411
G1 X197.89 Y124.644 E19.30621
G1 X198.771 Y125.042 E19.3464
G1 X199.361 Y125.342 E19.37392
G1 X200.386 Y125.938 E19.42322
G1 X200.66 Y126.118 E19.43685
G1 X201.399 Y126.65 E19.4747
G1 X201.838 Y126.996 E19.49794
G1 X202.622 Y127.679 E19.54117
G1 X203.105 Y128.142 E19.56899
G1 X203.771 Y128.84 E19.6091
G1 X204.197 Y129.361 E19.63708
G1 X204.507 Y129.766 E19.65828
G1 X205.063 Y130.568 E19.69886
G1 X205.434 Y131.16 E19.7279
G1 X205.994 Y132.171 E19.77595
G1 X206.126 Y132.445 E19.7886
G1 X206.492 Y133.296 E19.82711
G1 X206.79 Y134.081 E19.86202
G1 X207.083 Y134.973 E19.90105
G1 X207.219 Y135.51 E19.92408
G1 X207.376 Y136.25 E19.95553
G1 X207.455 Y136.692 E19.9742
G1 X207.598 Y137.855 E20.02292
G1 X207.638 Y138.528 E20.05095
G1 X207.66 Y139.357 E20.08543
G1 X207.663 Y151.274 E20.58088
G1 X207.647 Y152.328 E20.6247
G1 X207.589 Y153.283 E20.66448
G1 X207.546 Y153.685 E20.68129
G1 X207.386 Y154.7 E20.72401
G1 X207.284 Y155.188 E20.74474
G1 X207.138 Y155.799 E20.77085
G1 X206.947 Y156.46 E20.79946
G1 X206.806 Y156.9 E20.81867
G1 X206.479 Y157.782 E20.85778
G1 X206.278 Y158.229 E20.87815
G1 X205.975 Y158.864 E20.9074
G1 X205.534 Y159.692 E20.94641
G1 X205.276 Y160.106 E20.96669
G1 X204.861 Y160.74 E20.99819
G1 X204.311 Y161.504 E21.03733
G1 X203.954 Y161.931 E21.06047
G1 X203.62 Y162.309 E21.08144
G1 X202.962 Y162.991 E21.12084
G1 X202.393 Y163.53 E21.15342
G1 X201.709 Y164.123 E21.19106
G1 X201.125 Y164.557 E21.22131
G1 X200.713 Y164.842 E21.24214
G1 X199.663 Y165.525 E21.29422
G1 X198.495 Y166.258 E21.35155
G1 X196.393 Y167.659 E21.45657
G1 X194.363 Y169.099 E21.56005
G1 X192.321 Y170.635 E21.66628
G1 X190.357 Y172.202 E21.77074
G1 X188.402 Y173.853 E21.87712
G1 X186.539 Y175.519 E21.98103
G1 X184.711 Y177.25 E22.0857
G1 X182.936 Y179.029 E22.19018
G1 X181.173 Y180.898 E22.297
G1 X179.541 Y182.731 E22.39903
G1 X177.865 Y184.722 E22.50723
G1 X176.312 Y186.678 E22.61107
G1 X174.81 Y188.682 E22.71519
G1 X173.363 Y190.731 E22.81948
G1 X171.953 Y192.853 E22.9254
G1 X170.621 Y194.986 E23.02995
G1 X168.833 Y198.078 E23.17845
G1 X168.325 Y198.99 E23.22185
G1 X167.864 Y199.751 E23.25884
G1 X167.39 Y200.455 E23.29412
G1 X167.166 Y200.765 E23.31003
G1 X166.643 Y201.437 E23.34543
G1 X166.058 Y202.116 E23.38269
G1 X165.662 Y202.541 E23.40684
G1 X165.126 Y203.071 E23.43818
G1 X164.439 Y203.687 E23.47654
G1 X164.132 Y203.943 E23.49316
G1 X163.478 Y204.451 E23.52759
G1 X162.776 Y204.947 E23.56333
G1 X162.316 Y205.244 E23.58609
G1 X161.606 Y205.665 E23.62041
G1 X160.811 Y206.087 E23.65783
G1 X160.029 Y206.452 E23.69371
G1 X159.238 Y206.776 E23.72924
G1 X158.416 Y207.066 E23.76548
G1 X157.536 Y207.328 E23.80366
G1 X156.75 Y207.52 E23.8373
G1 X155.852 Y207.695 E23.87533
G1 X155.003 Y207.816 E23.91099
G1 X154.19 Y207.895 E23.94495
G1 X153.354 Y207.936 E23.97975
G1 X152.298 Y207.95 E24.02365
G1 X150.977 Y207.943 E24.07857
G1 X150.167 Y207.918 E24.11227
G1 X149.27 Y207.846 E24.14968
G1 X148.689 Y207.776 E24.17401
G1 X148.149 Y207.697 E24.1967
G1 X145.686 Y207.268 E24.30064
G1 X143.202 Y206.903 E24.40502
G1 X140.681 Y206.605 E24.51056
G1 X138.177 Y206.38 E24.61509
G1 X135.682 Y206.229 E24.71901
G1 X133.116 Y206.145 E24.82574
G1 X130.611 Y206.135 E24.92989
G1 X128.076 Y206.196 E25.03532
G1 X125.579 Y206.326 E25.13927
G1 X123.031 Y206.531 E25.24554
G1 X120.543 Y206.803 E25.3496
G1 X118.036 Y207.149 E25.45482
G1 X114.565 Y207.731 E25.60114
G1 X113.952 Y207.816 E25.62687
G1 X113.139 Y207.895 E25.66083
G1 X112.303 Y207.936 E25.69563
G1 X111.245 Y207.95 E25.73962
G1 X109.975 Y207.943 E25.79242
G1 X109.167 Y207.918 E25.82603
G1 X108.235 Y207.842 E25.8649
G1 X107.602 Y207.763 E25.89143
G1 X106.93 Y207.658 E25.9197
G1 X106.125 Y207.492 E25.95387
G1 X105.328 Y207.29 E25.98806
G1 X104.441 Y207.018 E26.02663
G1 X104.079 Y206.892 E26.04257
G1 X103.284 Y206.584 E26.07801
G1 X102.509 Y206.241 E26.11325
G1 X102.002 Y205.992 E26.13673
G1 X101.29 Y205.606 E26.1704
G1 X100.961 Y205.413 E26.18626
G1 X100.215 Y204.94 E26.22298
G1 X99.514 Y204.446 E26.25864
G1 X98.852 Y203.93 E26.29353
G1 X98.164 Y203.339 E26.33124
G1 X97.745 Y202.946 E26.35513
G1 X97.2 Y202.395 E26.38735
G1 X96.604 Y201.732 E26.42441
G1 X96.346 Y201.422 E26.44118
G1 X95.84 Y200.773 E26.47539
G1 X95.322 Y200.035 E26.51288
G1 X94.86 Y199.303 E26.54887
G1 X94.452 Y198.585 E26.5832
G1 X94.187 Y198.07 E26.60728
G1 X93.839 Y197.324 E26.6415
G1 X93.692 Y196.978 E26.65713
G1 X93.383 Y196.18 E26.69271
G1 X93.119 Y195.385 E26.72754
G1 X92.865 Y194.464 E26.76726
G1 X92.697 Y193.72 E26.79897
G1 X92.535 Y192.787 E26.83834
G1 X92.467 Y192.271 E26.85998
G1 X92.39 Y191.447 E26.89438
G1 X92.345 Y190.487 E26.93434
G1 X92.336 Y189.647 E26.96927
G1 X92.337 Y141.651 E28.96471
G1 X92.353 Y140.57 E29.00966
G1 X92.373 Y140.05 E29.03129
G1 X92.406 Y139.526 E29.05312
G1 X92.459 Y138.92 E29.07841
G1 X92.519 Y138.398 E29.10025
G1 X92.606 Y137.764 E29.12686
G1 X92.684 Y137.283 E29.14712
G1 X92.79 Y136.715 E29.17114
G1 X92.916 Y136.131 E29.19598
G1 X93.071 Y135.503 E29.22287
G1 X93.355 Y134.501 E29.26617
G1 X93.513 Y134.009 E29.28766
G1 X93.727 Y133.396 E29.31465
G1 X93.911 Y132.909 E29.33629
G1 X94.314 Y131.944 E29.37977
G1 X94.561 Y131.407 E29.40435
G1 X95.063 Y130.421 E29.45035
G1 X95.316 Y129.964 E29.47206
G1 X95.634 Y129.422 E29.49819
G1 X96.196 Y128.538 E29.54174
G1 X96.499 Y128.095 E29.56405
G1 X96.861 Y127.597 E29.58965
G1 X97.169 Y127.194 E29.61074
G1 X97.554 Y126.714 E29.63632
G1 X97.907 Y126.297 E29.65904
G1 X98.318 Y125.837 E29.68468
G1 X98.688 Y125.442 E29.70718
G1 X99.4 Y124.734 E29.74893
G1 X100.108 Y124.085 E29.78886
G1 X101.77 Y122.641 E29.88039
G1 X103.653 Y120.92 E29.98645
G1 X105.465 Y119.168 E30.09124
G1 X107.221 Y117.368 E30.19579
G1 X108.922 Y115.526 E30.30003
G1 X110.594 Y113.608 E30.40582
G1 X112.212 Y111.644 E30.51161
G1 X113.762 Y109.649 E30.61664
G1 X115.228 Y107.645 E30.71987
G1 X116.677 Y105.546 E30.82591
G1 X118.042 Y103.444 E30.93012
G1 X119.376 Y101.254 E31.03673
G1 X120.793 Y98.773 E31.15551
G1 X121.276 Y98.007 E31.19316
